!!!COM: muz.: TKk
!!!OTL: Oto nadchodzi mój Umiłowany
**kern	**dynam	**kern	**dynam	**kern	**dynam	**kern	**dynam	**kern	**dynam	**kern	**kern	**text	**kern	**text	**kern	**kern	**kern	**dynam	**kern	**dynam	**kern	**dynam	**kern	**dynam
*part13	*part13	*part12	*part12	*part11	*part11	*part10	*part10	*part9	*part9	*part8	*part7	*part7	*part6	*part6	*part5	*part5	*part4	*part4	*part3	*part3	*part2	*part2	*part1	*part1
*staff14	*	*staff13	*	*staff12	*	*staff11	*	*staff10	*	*staff9	*staff8	*staff8	*staff7	*staff7	*staff6	*staff5	*staff4	*	*staff3	*	*staff2	*	*staff1	*
*I"Contrabbasso	*	*I"Violoncelli	*	*I"Viole	*	*I"Violini 2	*	*I"Violini 1	*	*I"Tenore Basso	*I"Soprano Alto	*	*I"Soprano Sol.	*	*I"Arpa	*	*I"Fagotto	*	*I"Clarinetto in B♭	*	*I"Oboe	*	*I"Flauto	*
*I'C-b.	*	*I'V-c.	*	*I'V-le	*	*I'V-ni 2	*	*I'V-ni 1	*	*I'T B	*I'S A	*	*I'S. Sol.	*	*I'Ar.	*	*I'Fag.	*	*I'Cl. in B♭	*	*I'Ob.	*	*I'Fl.	*
*clefF4	*	*clefF4	*	*clefC3	*	*clefG2	*	*clefG2	*	*clefF4	*clefG2	*	*clefG2	*	*clefF4	*clefG2	*clefF4	*	*clefG2	*	*clefG2	*	*clefG2	*
*ITrd0c0	*	*	*	*	*	*	*	*	*	*	*	*	*	*	*	*	*	*	*ITrd1c2	*	*	*	*	*
*k[b-]	*	*k[b-]	*	*k[b-]	*	*k[b-]	*	*k[b-]	*	*k[b-]	*k[b-]	*	*k[b-]	*	*k[b-]	*k[b-]	*k[b-]	*	*k[b-]	*	*k[b-]	*	*k[b-]	*
*M4/4	*	*M4/4	*	*M4/4	*	*M4/4	*	*M4/4	*	*M4/4	*M4/4	*	*M4/4	*	*M4/4	*M4/4	*M4/4	*	*M4/4	*	*M4/4	*	*M4/4	*
*MM70	*MM70	*	*MM70	*	*MM70	*	*MM70	*	*MM70	*	*MM70	*MM70	*	*MM70	*	*MM70	*MM70	*	*MM70	*	*MM70	*	*MM70	*
=1	=1	=1	=1	=1	=1	=1	=1	=1	=1	=1	=1	=1	=1	=1	=1	=1	=1	=1	=1	=1	=1	=1	=1	=1
!	!	!	!	!	!	!	!	!	!	!	!	!	!	!	!	!	!	!	!	!	!	!	!LO:TX:a:t=[quarter]=70	!
1r	.	1F	mf	16c'LL	mf	16f'LL	mf	1r	.	1r	1r	.	1r	.	1r	1r	1r	.	1r	.	2.r	.	1r	.
.	.	.	.	16c'	.	16f'	.	.	.	.	.	.	.	.	.	.	.	.	.	.	.	.	.	.
.	.	.	.	16A'	.	16cc'	.	.	.	.	.	.	.	.	.	.	.	.	.	.	.	.	.	.
.	.	.	.	16c'JJ	.	16f'JJ	.	.	.	.	.	.	.	.	.	.	.	.	.	.	.	.	.	.
.	.	.	.	16r	.	16r	.	.	.	.	.	.	.	.	.	.	.	.	.	.	.	.	.	.
.	.	.	.	16c'LL	.	16f'LL	.	.	.	.	.	.	.	.	.	.	.	.	.	.	.	.	.	.
.	.	.	.	16A'	.	16cc'	.	.	.	.	.	.	.	.	.	.	.	.	.	.	.	.	.	.
.	.	.	.	16c'JJ	.	16f'JJ	.	.	.	.	.	.	.	.	.	.	.	.	.	.	.	.	.	.
.	.	.	.	16r	.	16r	.	.	.	.	.	.	.	.	.	.	.	.	.	.	.	.	.	.
.	.	.	.	16c'LL	.	16f'LL	.	.	.	.	.	.	.	.	.	.	.	.	.	.	.	.	.	.
.	.	.	.	16A'	.	16cc'	.	.	.	.	.	.	.	.	.	.	.	.	.	.	.	.	.	.
.	.	.	.	16c'JJ	.	16f'JJ	.	.	.	.	.	.	.	.	.	.	.	.	.	.	.	.	.	.
.	.	.	.	16r	.	16r	.	.	.	.	.	.	.	.	.	.	.	.	.	.	16fLL	mf	.	.
.	.	.	.	16c'LL	.	16f'LL	.	.	.	.	.	.	.	.	.	.	.	.	.	.	16g	.	.	.
.	.	.	.	16A'	.	16cc'	.	.	.	.	.	.	.	.	.	.	.	.	.	.	16a	.	.	.
.	.	.	.	16c'JJ	.	16f'JJ	.	.	.	.	.	.	.	.	.	.	.	.	.	.	16b-JJ	.	.	.
=2	=2	=2	=2	=2	=2	=2	=2	=2	=2	=2	=2	=2	=2	=2	=2	=2	=2	=2	=2	=2	=2	=2	=2	=2
1r	.	1E-X	.	16B-'LL	.	16f'LL	.	1r	.	1r	1r	.	1r	.	1r	1r	4.r	.	1r	.	4.cc	.	1r	.
.	.	.	.	16B-'	.	16f'	.	.	.	.	.	.	.	.	.	.	.	.	.	.	.	.	.	.
.	.	.	.	16G'	.	16cc'	.	.	.	.	.	.	.	.	.	.	.	.	.	.	.	.	.	.
.	.	.	.	16B-'JJ	.	16f'JJ	.	.	.	.	.	.	.	.	.	.	.	.	.	.	.	.	.	.
.	.	.	.	16r	.	16r	.	.	.	.	.	.	.	.	.	.	.	.	.	.	.	.	.	.
.	.	.	.	16B-'LL	.	16f'LL	.	.	.	.	.	.	.	.	.	.	.	.	.	.	.	.	.	.
.	.	.	.	16G'	.	16cc'	.	.	.	.	.	.	.	.	.	.	8F	mf	.	.	16b-LL	.	.	.
.	.	.	.	16B-'JJ	.	16f'JJ	.	.	.	.	.	.	.	.	.	.	.	.	.	.	16aJJ	.	.	.
.	.	.	.	16r	.	16r	.	.	.	.	.	.	.	.	.	.	4.c	.	.	.	2f	.	.	.
.	.	.	.	16B-'LL	.	16f'LL	.	.	.	.	.	.	.	.	.	.	.	.	.	.	.	.	.	.
.	.	.	.	16G'	.	16cc'	.	.	.	.	.	.	.	.	.	.	.	.	.	.	.	.	.	.
.	.	.	.	16B-'JJ	.	16f'JJ	.	.	.	.	.	.	.	.	.	.	.	.	.	.	.	.	.	.
.	.	.	.	16r	.	16r	.	.	.	.	.	.	.	.	.	.	.	.	.	.	.	.	.	.
.	.	.	.	16B-'LL	.	16f'LL	.	.	.	.	.	.	.	.	.	.	.	.	.	.	.	.	.	.
.	.	.	.	16G'	.	16cc'	.	.	.	.	.	.	.	.	.	.	16B-LL	.	.	.	.	.	.	.
.	.	.	.	16B-'JJ	.	16f'JJ	.	.	.	.	.	.	.	.	.	.	16AJJ	.	.	.	.	.	.	.
=3	=3	=3	=3	=3	=3	=3	=3	=3	=3	=3	=3	=3	=3	=3	=3	=3	=3	=3	=3	=3	=3	=3	=3	=3
1r	.	1D	.	16B-'LL	.	16f'LL	.	1r	.	1r	1r	.	1r	.	1r	1r	2F	.	1r	.	4r	.	1r	.
.	.	.	.	16B-'	.	16f'	.	.	.	.	.	.	.	.	.	.	.	.	.	.	.	.	.	.
.	.	.	.	16F'	.	16cc'	.	.	.	.	.	.	.	.	.	.	.	.	.	.	.	.	.	.
.	.	.	.	16B-'JJ	.	16f'JJ	.	.	.	.	.	.	.	.	.	.	.	.	.	.	.	.	.	.
.	.	.	.	16r	.	16r	.	.	.	.	.	.	.	.	.	.	.	.	.	.	16b-LL	.	.	.
.	.	.	.	16B-'LL	.	16f'LL	.	.	.	.	.	.	.	.	.	.	.	.	.	.	16a	.	.	.
.	.	.	.	16F'	.	16cc'	.	.	.	.	.	.	.	.	.	.	.	.	.	.	16g	.	.	.
.	.	.	.	16B-'JJ	.	16f'JJ	.	.	.	.	.	.	.	.	.	.	.	.	.	.	[16fJJ	.	.	.
.	.	.	.	16r	.	16r	.	.	.	.	.	.	.	.	.	.	2r	.	.	.	4.f]	.	.	.
.	.	.	.	16B-'LL	.	16f'LL	.	.	.	.	.	.	.	.	.	.	.	.	.	.	.	.	.	.
.	.	.	.	16F'	.	16cc'	.	.	.	.	.	.	.	.	.	.	.	.	.	.	.	.	.	.
.	.	.	.	16B-'JJ	.	16f'JJ	.	.	.	.	.	.	.	.	.	.	.	.	.	.	.	.	.	.
.	.	.	.	16r	.	16r	.	.	.	.	.	.	.	.	.	.	.	.	.	.	.	.	.	.
.	.	.	.	16B-'LL	.	16f'LL	.	.	.	.	.	.	.	.	.	.	.	.	.	.	.	.	.	.
.	.	.	.	16F'	.	16cc'	.	.	.	.	.	.	.	.	.	.	.	.	.	.	16aLL	.	.	.
.	.	.	.	16B-'JJ	.	16f'JJ	.	.	.	.	.	.	.	.	.	.	.	.	.	.	16b-JJ	.	.	.
=4	=4	=4	=4	=4	=4	=4	=4	=4	=4	=4	=4	=4	=4	=4	=4	=4	=4	=4	=4	=4	=4	=4	=4	=4
2.r	.	1C	.	16c'LL	.	16f'LL	.	1r	.	1r	1r	.	1r	.	1r	1r	4r	.	1r	.	4.cc	.	1r	.
.	.	.	.	16c'	.	16f'	.	.	.	.	.	.	.	.	.	.	.	.	.	.	.	.	.	.
.	.	.	.	16A'	.	16cc'	.	.	.	.	.	.	.	.	.	.	.	.	.	.	.	.	.	.
.	.	.	.	16c'JJ	.	16f'JJ	.	.	.	.	.	.	.	.	.	.	.	.	.	.	.	.	.	.
.	.	.	.	16r	.	16r	.	.	.	.	.	.	.	.	.	.	16B-LL	.	.	.	.	.	.	.
.	.	.	.	16A'LL	.	16f'LL	.	.	.	.	.	.	.	.	.	.	16A	.	.	.	.	.	.	.
.	.	.	.	16f'	.	16cc'	.	.	.	.	.	.	.	.	.	.	16G	.	.	.	16ddLL	.	.	.
.	.	.	.	16e'JJ	.	16g'JJ	.	.	.	.	.	.	.	.	.	.	[16FJJ	.	.	.	[16ccJJ	.	.	.
.	.	.	.	16r	.	16r	.	.	.	.	.	.	.	.	.	.	4F]	.	.	.	2cc]	.	.	.
.	.	.	.	16e'LL	.	16g'LL	.	.	.	.	.	.	.	.	.	.	.	.	.	.	.	.	.	.
.	.	.	.	16f'	.	16a'	.	.	.	.	.	.	.	.	.	.	.	.	.	.	.	.	.	.
.	.	.	.	16g'JJ	.	16b-'JJ	.	.	.	.	.	.	.	.	.	.	.	.	.	.	.	.	.	.
8r	.	.	.	16r	.	16r	.	.	.	.	.	.	.	.	.	.	4G	.	.	.	.	.	.	.
.	.	.	.	16e'LL	.	16g'LL	.	.	.	.	.	.	.	.	.	.	.	.	.	.	.	.	.	.
8C	mf	.	.	16f'	.	16a'	.	.	.	.	.	.	.	.	.	.	.	.	.	.	.	.	.	.
.	.	.	.	16e'JJ	.	16g'JJ	.	.	.	.	.	.	.	.	.	.	.	.	.	.	.	.	.	.
=5	=5	=5	=5	=5	=5	=5	=5	=5	=5	=5	=5	=5	=5	=5	=5	=5	=5	=5	=5	=5	=5	=5	=5	=5
1F	.	1F	.	16c'LL	.	16a'LL	.	16ff'LL	mf	1r	1r	.	1r	.	1r	1r	2F	.	16fLL	mf	2.r	.	2.r	.
.	.	.	.	16c'	.	16a'	.	16ff'	.	.	.	.	.	.	.	.	.	.	16g	.	.	.	.	.
.	.	.	.	16A'	.	16f'	.	16ccc'	.	.	.	.	.	.	.	.	.	.	16a	.	.	.	.	.
.	.	.	.	16c'JJ	.	16a'JJ	.	16ff'JJ	.	.	.	.	.	.	.	.	.	.	16b-JJ	.	.	.	.	.
.	.	.	.	16r	.	16r	.	16r	.	.	.	.	.	.	.	.	.	.	8ccL	.	.	.	.	.
.	.	.	.	16c'LL	.	16a'LL	.	16ff'LL	.	.	.	.	.	.	.	.	.	.	.	.	.	.	.	.
.	.	.	.	16A'	.	16f'	.	16ccc'	.	.	.	.	.	.	.	.	.	.	16ddL	.	.	.	.	.
.	.	.	.	16c'JJ	.	16a'JJ	.	16ff'JJ	.	.	.	.	.	.	.	.	.	.	[16ccJJ	.	.	.	.	.
.	.	.	.	16r	.	16r	.	16r	.	.	.	.	.	.	.	.	2r	.	4.cc]	.	.	.	.	.
.	.	.	.	16c'LL	.	16a'LL	.	16ff'LL	.	.	.	.	.	.	.	.	.	.	.	.	.	.	.	.
.	.	.	.	16A'	.	16f'	.	16ccc'	.	.	.	.	.	.	.	.	.	.	.	.	.	.	.	.
.	.	.	.	16c'JJ	.	16a'JJ	.	16ff'JJ	.	.	.	.	.	.	.	.	.	.	.	.	.	.	.	.
.	.	.	.	16r	.	16r	.	16r	.	.	.	.	.	.	.	.	.	.	.	.	16aLL	.	16ffLL	mf
.	.	.	.	16c'LL	.	16a'LL	.	16ff'LL	.	.	.	.	.	.	.	.	.	.	.	.	16b-	.	16gg	.
.	.	.	.	16A'	.	16f'	.	16ccc'	.	.	.	.	.	.	.	.	.	.	8r	.	16cc	.	16aa	.
.	.	.	.	16c'JJ	.	16a'JJ	.	16ff'JJ	.	.	.	.	.	.	.	.	.	.	.	.	16ddJJ	.	16bb-JJ	.
=6	=6	=6	=6	=6	=6	=6	=6	=6	=6	=6	=6	=6	=6	=6	=6	=6	=6	=6	=6	=6	=6	=6	=6	=6
1E-X	.	1E-X	.	16B-'LL	.	16g'LL	.	16ff'LL	.	1r	1r	.	1r	.	1r	1r	2r	.	2r	.	4.ee-X	.	4.ccc	.
.	.	.	.	16B-'	.	16g'	.	16ff'	.	.	.	.	.	.	.	.	.	.	.	.	.	.	.	.
.	.	.	.	16G'	.	16e-X'	.	16ccc'	.	.	.	.	.	.	.	.	.	.	.	.	.	.	.	.
.	.	.	.	16B-'JJ	.	16g'JJ	.	16ff'JJ	.	.	.	.	.	.	.	.	.	.	.	.	.	.	.	.
.	.	.	.	16r	.	16r	.	16r	.	.	.	.	.	.	.	.	.	.	.	.	.	.	.	.
.	.	.	.	16B-'LL	.	16g'LL	.	16ff'LL	.	.	.	.	.	.	.	.	.	.	.	.	.	.	.	.
.	.	.	.	16G'	.	16e-'	.	16ccc'	.	.	.	.	.	.	.	.	.	.	.	.	16ddLL	.	16bb-LL	.
.	.	.	.	16B-'JJ	.	16g'JJ	.	16ff'JJ	.	.	.	.	.	.	.	.	.	.	.	.	16ccJJ	.	16aaJJ	.
.	.	.	.	16r	.	16r	.	16r	.	.	.	.	.	.	.	.	8r	.	8r	.	2b-	.	2ff	.
.	.	.	.	16B-'LL	.	16g'LL	.	16ff'LL	.	.	.	.	.	.	.	.	.	.	.	.	.	.	.	.
.	.	.	.	16G'	.	16e-'	.	16ccc'	.	.	.	.	.	.	.	.	8GL	.	8b-L	.	.	.	.	.
.	.	.	.	16B-'JJ	.	16g'JJ	.	16ff'JJ	.	.	.	.	.	.	.	.	.	.	.	.	.	.	.	.
.	.	.	.	16r	.	16r	.	16r	.	.	.	.	.	.	.	.	8F	.	8a	.	.	.	.	.
.	.	.	.	16B-'LL	.	16g'LL	.	16ff'LL	.	.	.	.	.	.	.	.	.	.	.	.	.	.	.	.
.	.	.	.	16G'	.	16e-'	.	16ccc'	.	.	.	.	.	.	.	.	8E-XJ	.	8gJ	.	.	.	.	.
.	.	.	.	16B-'JJ	.	16g'JJ	.	16ff'JJ	.	.	.	.	.	.	.	.	.	.	.	.	.	.	.	.
=7	=7	=7	=7	=7	=7	=7	=7	=7	=7	=7	=7	=7	=7	=7	=7	=7	=7	=7	=7	=7	=7	=7	=7	=7
1D	.	1D	.	16c'LL	.	16b-'LL	.	16ff'LL	.	1r	1r	.	1r	.	1r	1r	2D	.	2f	.	2r	.	8r	.
.	.	.	.	16c'	.	16b-'	.	16ff'	.	.	.	.	.	.	.	.	.	.	.	.	.	.	.	.
.	.	.	.	16B-'	.	16f'	.	16ccc'	.	.	.	.	.	.	.	.	.	.	.	.	.	.	8bb-L	.
.	.	.	.	16c'JJ	.	16b-'JJ	.	16ff'JJ	.	.	.	.	.	.	.	.	.	.	.	.	.	.	.	.
.	.	.	.	16r	.	16r	.	16r	.	.	.	.	.	.	.	.	.	.	.	.	.	.	8aa	.
.	.	.	.	16c'LL	.	16b-'LL	.	16ff'LL	.	.	.	.	.	.	.	.	.	.	.	.	.	.	.	.
.	.	.	.	16B-'	.	16f'	.	16ccc'	.	.	.	.	.	.	.	.	.	.	.	.	.	.	8ggJ	.
.	.	.	.	16c'JJ	.	16b-'JJ	.	16ff'JJ	.	.	.	.	.	.	.	.	.	.	.	.	.	.	.	.
.	.	.	.	16r	.	16r	.	16r	.	.	.	.	.	.	.	.	2r	.	2r	.	8r	.	4.ff	.
.	.	.	.	16c'LL	.	16b-'LL	.	16ff'LL	.	.	.	.	.	.	.	.	.	.	.	.	.	.	.	.
.	.	.	.	16B-'	.	16f'	.	16ccc'	.	.	.	.	.	.	.	.	.	.	.	.	8b-L	.	.	.
.	.	.	.	16c'JJ	.	16b-'JJ	.	16ff'JJ	.	.	.	.	.	.	.	.	.	.	.	.	.	.	.	.
.	.	.	.	16r	.	16r	.	16r	.	.	.	.	.	.	.	.	.	.	.	.	8a	.	.	.
.	.	.	.	16c'LL	.	16b-'LL	.	16ff'LL	.	.	.	.	.	.	.	.	.	.	.	.	.	.	.	.
.	.	.	.	16B-'	.	16f'	.	16ccc'	.	.	.	.	.	.	.	.	.	.	.	.	8fJ	.	16aaLL	.
.	.	.	.	16c'JJ	.	16b-'JJ	.	16ff'JJ	.	.	.	.	.	.	.	.	.	.	.	.	.	.	16bb-JJ	.
=8	=8	=8	=8	=8	=8	=8	=8	=8	=8	=8	=8	=8	=8	=8	=8	=8	=8	=8	=8	=8	=8	=8	=8	=8
1C	.	1C	.	16A'LL	.	16cc'LL	.	16ff'LL	.	1r	1r	.	1r	.	1r	1r	1r	.	8r	.	2g	.	4.ccc	.
.	.	.	.	16A'	.	16cc'	.	16ff'	.	.	.	.	.	.	.	.	.	.	.	.	.	.	.	.
.	.	.	.	16F'	.	16a'	.	16ccc'	.	.	.	.	.	.	.	.	.	.	8b-L	.	.	.	.	.
.	.	.	.	16A'JJ	.	16cc'JJ	.	16ff'JJ	.	.	.	.	.	.	.	.	.	.	.	.	.	.	.	.
.	.	.	.	16r	.	16r	.	16r	.	.	.	.	.	.	.	.	.	.	8a	.	.	.	.	.
.	.	.	.	16A'LL	.	16cc'LL	.	16ff'LL	.	.	.	.	.	.	.	.	.	.	.	.	.	.	.	.
.	.	.	.	16c'	.	16a'	.	16ccc'	.	.	.	.	.	.	.	.	.	.	8gJ	.	.	.	16dddLL	.
.	.	.	.	16e'JJ	.	16cc'JJ	.	16gg'JJ	.	.	.	.	.	.	.	.	.	.	.	.	.	.	[16cccJJ	.
.	.	.	.	16r	.	16r	.	16r	.	.	.	.	.	.	.	.	.	.	4f	.	4a	.	2ccc]	.
.	.	.	.	16e'LL	.	16cc'LL	.	16gg'LL	.	.	.	.	.	.	.	.	.	.	.	.	.	.	.	.
.	.	.	.	16c'	.	16g'	.	16cc'	.	.	.	.	.	.	.	.	.	.	.	.	.	.	.	.
.	.	.	.	16G'JJ	.	16e'JJ	.	16g'JJ	.	.	.	.	.	.	.	.	.	.	.	.	.	.	.	.
.	.	.	.	16r	.	16r	.	16r	.	.	.	.	.	.	.	.	.	.	4g	.	4b-	.	.	.
.	.	.	.	16B-'LL	.	16e'LL	.	16g'LL	.	.	.	.	.	.	.	.	.	.	.	.	.	.	.	.
.	.	.	.	16c'	.	16f'	.	16a'	.	.	.	.	.	.	.	.	.	.	.	.	.	.	.	.
.	.	.	.	16B-'JJ	.	16e'JJ	.	16g'JJ	.	.	.	.	.	.	.	.	.	.	.	.	.	.	.	.
=9	=9	=9	=9	=9	=9	=9	=9	=9	=9	=9	=9	=9	=9	=9	=9	=9	=9	=9	=9	=9	=9	=9	=9	=9
1F	.	1F	.	(4A	.	(4c	.	(4f	.	1r	1r	.	1r	.	1r	1r	1r	.	2f	.	2a	.	1r	.
.	.	.	.	4B-	.	4d	.	4g	.	.	.	.	.	.	.	.	.	.	.	.	.	.	.	.
.	.	.	.	4c)	.	4f)	.	4a)	.	.	.	.	.	.	.	.	.	.	2r	.	2r	.	.	.
.	.	.	.	8dL	.	8gL	.	8b-L	.	.	.	.	.	.	.	.	.	.	.	.	.	.	.	.
.	.	.	.	16c'L	.	16f'L	.	16a'L	.	.	.	.	.	.	.	.	.	.	.	.	.	.	.	.
.	.	.	.	16d'JJ	.	16g'JJ	.	16b-'JJ	.	.	.	.	.	.	.	.	.	.	.	.	.	.	.	.
=10||	=10||	=10||	=10||	=10||	=10||	=10||	=10||	=10||	=10||	=10||	=10||	=10||	=10||	=10||	=10||	=10||	=10||	=10||	=10||	=10||	=10||	=10||	=10||	=10||
16F'	.	16F'	.	16c'	.	16a'	.	16cc'	.	1r	1r	.	4cc	O-	1r	1r	1r	.	4cc	.	1r	.	1r	.
8.r	.	8.r	.	8r	.	8r	.	8.r	.	.	.	.	.	.	.	.	.	.	.	.	.	.	.	.
.	.	.	.	16r	.	16r	.	.	.	.	.	.	.	.	.	.	.	.	.	.	.	.	.	.
4r	.	4r	.	4r	.	4r	.	4r	.	.	.	.	8b-	-to	.	.	.	.	8b-L	.	.	.	.	.
.	.	.	.	.	.	.	.	.	.	.	.	.	8a	nad-	.	.	.	.	8aJ	.	.	.	.	.
!LO:TX:a:t=pizz.	!	!LO:TX:a:t=pizz.	!	!	!	!	!	!	!	!	!	!	!	!	!	!	!	!	!	!	!	!	!	!
4C	.	4C	.	16cLL	.	16gLL	.	2r	.	.	.	.	4g	-cho-	.	.	.	.	4g	.	.	.	.	.
.	.	.	.	16G	.	16c	.	.	.	.	.	.	.	.	.	.	.	.	.	.	.	.	.	.
.	.	.	.	16F	.	16d	.	.	.	.	.	.	.	.	.	.	.	.	.	.	.	.	.	.
.	.	.	.	16GJJ	.	16eJJ	.	.	.	.	.	.	.	.	.	.	.	.	.	.	.	.	.	.
4C	.	4C	.	16ALL	.	16fLL	.	.	.	.	.	.	4g	-dzi	.	.	.	.	4g	.	.	.	.	.
.	.	.	.	16B-	.	16g	.	.	.	.	.	.	.	.	.	.	.	.	.	.	.	.	.	.
.	.	.	.	16c	.	16a	.	.	.	.	.	.	.	.	.	.	.	.	.	.	.	.	.	.
.	.	.	.	16dJJ	.	16b-JJ	.	.	.	.	.	.	.	.	.	.	.	.	.	.	.	.	.	.
=11	=11	=11	=11	=11	=11	=11	=11	=11	=11	=11	=11	=11	=11	=11	=11	=11	=11	=11	=11	=11	=11	=11	=11	=11
2r	.	2r	.	16A'	.	16cc'	.	1r	.	1r	1r	.	8cc	mój	1r	1r	1r	.	8cc'~L	.	1r	.	2.r	.
.	.	.	.	16r	.	16r	.	.	.	.	.	.	.	.	.	.	.	.	.	.	.	.	.	.
.	.	.	.	8r	.	8r	.	.	.	.	.	.	8cc	U-	.	.	.	.	8cc'~	.	.	.	.	.
.	.	.	.	4r	.	4r	.	.	.	.	.	.	8b-	-mi-	.	.	.	.	8b-	.	.	.	.	.
.	.	.	.	.	.	.	.	.	.	.	.	.	8a	-ło-	.	.	.	.	8aJ	.	.	.	.	.
4C	.	4C	.	16cLL	.	16gLL	.	.	.	.	.	.	4g	-wa-	.	.	.	.	4g	.	.	.	.	.
.	.	.	.	16G	.	16c	.	.	.	.	.	.	.	.	.	.	.	.	.	.	.	.	.	.
.	.	.	.	16F	.	16d	.	.	.	.	.	.	.	.	.	.	.	.	.	.	.	.	.	.
.	.	.	.	16GJJ	.	16eJJ	.	.	.	.	.	.	.	.	.	.	.	.	.	.	.	.	.	.
4C	.	4C	.	16ALL	.	16fLL	.	.	.	.	.	.	4g	-ny,	.	.	.	.	4g	.	.	.	8r	.
.	.	.	.	16B-	.	16g	.	.	.	.	.	.	.	.	.	.	.	.	.	.	.	.	.	.
.	.	.	.	16c	.	16a	.	.	.	.	.	.	.	.	.	.	.	.	.	.	.	.	16aLL	.
.	.	.	.	16dJJ	.	16b-JJ	.	.	.	.	.	.	.	.	.	.	.	.	.	.	.	.	16b-JJ	.
=12	=12	=12	=12	=12	=12	=12	=12	=12	=12	=12	=12	=12	=12	=12	=12	=12	=12	=12	=12	=12	=12	=12	=12	=12
4AA	.	4AA	.	2f	.	2cc	.	1r	.	1r	1r	.	4cc	o-	1r	1r	1r	.	1r	.	1r	.	8cc	.
.	.	.	.	.	.	.	.	.	.	.	.	.	.	.	.	.	.	.	.	.	.	.	4ff	.
8r	.	8r	.	.	.	.	.	.	.	.	.	.	4cc	-to	.	.	.	.	.	.	.	.	.	.
8AA	.	8AA	.	.	.	.	.	.	.	.	.	.	.	.	.	.	.	.	.	.	.	.	8ee	.
4BB-	.	4BB-	.	2d	.	2b-	.	.	.	.	.	.	8dd	sły-	.	.	.	.	.	.	.	.	8ddL	.
.	.	.	.	.	.	.	.	.	.	.	.	.	8dd	-szę	.	.	.	.	.	.	.	.	16ccL	.
.	.	.	.	.	.	.	.	.	.	.	.	.	.	.	.	.	.	.	.	.	.	.	16ddJJ	.
8r	.	8r	.	.	.	.	.	.	.	.	.	.	8ee	je-	.	.	.	.	.	.	.	.	8eeL	.
8BB-	.	8BB-	.	.	.	.	.	.	.	.	.	.	8ff	-go	.	.	.	.	.	.	.	.	8ffJ	.
=13	=13	=13	=13	=13	=13	=13	=13	=13	=13	=13	=13	=13	=13	=13	=13	=13	=13	=13	=13	=13	=13	=13	=13	=13
4C	.	4C	.	2f	.	2.g	.	1r	.	1r	1r	.	1cc	głos!	1r	1r	1r	.	1r	.	1r	.	8.ccL	.
.	.	.	.	.	.	.	.	.	.	.	.	.	.	.	.	.	.	.	.	.	.	.	16b-Jk	.
8r	.	8r	.	.	.	.	.	.	.	.	.	.	.	.	.	.	.	.	.	.	.	.	16aLL	.
.	.	.	.	.	.	.	.	.	.	.	.	.	.	.	.	.	.	.	.	.	.	.	16g	.
8GG	.	8GG	.	.	.	.	.	.	.	.	.	.	.	.	.	.	.	.	.	.	.	.	16a	.
.	.	.	.	.	.	.	.	.	.	.	.	.	.	.	.	.	.	.	.	.	.	.	16b-JJ	.
4C	.	4C	.	4e	.	.	.	.	.	.	.	.	.	.	.	.	.	.	.	.	.	.	4cc	.
8r	.	8r	.	16B-LL	.	16dLL	.	.	.	.	.	.	.	.	.	.	.	.	.	.	.	.	4r	.
.	.	.	.	16c	.	16e	.	.	.	.	.	.	.	.	.	.	.	.	.	.	.	.	.	.
8AA	.	8AA	.	16d	.	16f	.	.	.	.	.	.	.	.	.	.	.	.	.	.	.	.	.	.
.	.	.	.	16eJJ	.	16gJJ	.	.	.	.	.	.	.	.	.	.	.	.	.	.	.	.	.	.
=14	=14	=14	=14	=14	=14	=14	=14	=14	=14	=14	=14	=14	=14	=14	=14	=14	=14	=14	=14	=14	=14	=14	=14	=14
8D	.	8D	.	4f	.	4a	.	1r	.	1r	1r	.	4a	O-	1r	1r	1r	.	4a	.	1r	.	1r	.
8r	.	8r	.	.	.	.	.	.	.	.	.	.	.	.	.	.	.	.	.	.	.	.	.	.
4r	.	4r	.	8eL	.	8gL	.	.	.	.	.	.	8g	-to	.	.	.	.	8gL	.	.	.	.	.
.	.	.	.	8dJ	.	8fJ	.	.	.	.	.	.	8f	nad-	.	.	.	.	8fJ	.	.	.	.	.
4AA	.	4AA	.	16c#XLL	.	16eLL	.	.	.	.	.	.	4e	-cho-	.	.	.	.	4e	.	.	.	.	.
.	.	.	.	16A	.	16c#X	.	.	.	.	.	.	.	.	.	.	.	.	.	.	.	.	.	.
.	.	.	.	16G	.	16Bn	.	.	.	.	.	.	.	.	.	.	.	.	.	.	.	.	.	.
.	.	.	.	16AJJ	.	16c#JJ	.	.	.	.	.	.	.	.	.	.	.	.	.	.	.	.	.	.
4AA	.	4AA	.	16BnLL	.	16dLL	.	.	.	.	.	.	4e	-dzi	.	.	.	.	4e	.	.	.	.	.
.	.	.	.	16c#	.	16e	.	.	.	.	.	.	.	.	.	.	.	.	.	.	.	.	.	.
.	.	.	.	16d	.	16f	.	.	.	.	.	.	.	.	.	.	.	.	.	.	.	.	.	.
.	.	.	.	16eJJ	.	16gJJ	.	.	.	.	.	.	.	.	.	.	.	.	.	.	.	.	.	.
=15	=15	=15	=15	=15	=15	=15	=15	=15	=15	=15	=15	=15	=15	=15	=15	=15	=15	=15	=15	=15	=15	=15	=15	=15
8D'	.	8D'	.	8f'~L	.	8a'~L	.	1r	.	1r	1r	.	8a	mój	1r	1r	2r	.	8a'~L	.	1r	.	1r	.
8r	.	8r	.	8f'~	.	8a'~	.	.	.	.	.	.	8a	U-	.	.	.	.	8a'~	.	.	.	.	.
4r	.	4r	.	8e	.	8g	.	.	.	.	.	.	8g	-mi-	.	.	.	.	8g	.	.	.	.	.
.	.	.	.	8dJ	.	8fJ	.	.	.	.	.	.	8f	-ło-	.	.	.	.	8fJ	.	.	.	.	.
4AA	.	4AA	.	4c#X	.	4e	.	.	.	.	.	.	4e	-wa-	.	.	8r	.	4e	.	.	.	.	.
.	.	.	.	.	.	.	.	.	.	.	.	.	.	.	.	.	8C#XL	.	.	.	.	.	.	.
4AA	.	4AA	.	4c#	.	4e	.	.	.	.	.	.	4e	-ny,	.	.	8BB-	.	4e	.	.	.	.	.
.	.	.	.	.	.	.	.	.	.	.	.	.	.	.	.	.	8AAJ	.	.	.	.	.	.	.
=16	=16	=16	=16	=16	=16	=16	=16	=16	=16	=16	=16	=16	=16	=16	=16	=16	=16	=16	=16	=16	=16	=16	=16	=16
4GG	.	4GG	.	4B-	.	4g	.	1r	.	1r	1r	.	4g	o-	1r	1r	8GGL	.	4g	.	1r	.	1r	.
.	.	.	.	.	.	.	.	.	.	.	.	.	.	.	.	.	16BB-L	.	.	.	.	.	.	.
.	.	.	.	.	.	.	.	.	.	.	.	.	.	.	.	.	16CJJ	.	.	.	.	.	.	.
8r	.	8r	.	4B-	.	4f	.	.	.	.	.	.	4f	-to	.	.	8DL	.	4f	.	.	.	.	.
8BB-	.	8BB-	.	.	.	.	.	.	.	.	.	.	.	.	.	.	8B-J	.	.	.	.	.	.	.
4C	.	4C	.	8G'L	.	8f'L	.	.	.	.	.	.	8f	sły-	.	.	4c'	.	8f'L	.	.	.	.	.
.	.	.	.	8G'	.	8f'	.	.	.	.	.	.	8f	-szę	.	.	.	.	8f'	.	.	.	.	.
8r	.	8r	.	8G'	.	8f'	.	.	.	.	.	.	8f	je-	.	.	4C'	.	8f'	.	.	.	.	.
16GGLL	.	16GGLL	.	8G'J	.	8e'J	.	.	.	.	.	.	8e	-go	.	.	.	.	8e'J	.	.	.	.	.
16CJJ	.	16CJJ	.	.	.	.	.	.	.	.	.	.	.	.	.	.	.	.	.	.	.	.	.	.
=17	=17	=17	=17	=17	=17	=17	=17	=17	=17	=17	=17	=17	=17	=17	=17	=17	=17	=17	=17	=17	=17	=17	=17	=17
4FF	.	4FF	.	(4A	<	(4f	<	2r	.	1r	2r	.	2f	głos!	2.r	1r	2F	.	2f	.	1r	.	1r	.
2r	.	2r	.	4B-	.	4g	.	.	.	.	.	.	.	.	.	.	.	.	.	.	.	.	.	.
.	.	.	.	8cL	.	8aL	.	8ffL	<	.	2r	.	2r	.	.	.	2r	.	2r	.	.	.	.	.
.	.	.	.	8eJ)	.	8b-J)	.	8ggJ	.	.	.	.	.	.	.	.	.	.	.	.	.	.	.	.
8r	.	8r	.	16f'LL	.	16cc'LL	.	16aa'LL	.	.	.	.	.	.	4r	.	.	.	.	.	.	.	.	.
.	.	.	.	16e'	.	16b-'	.	16gg'	.	.	.	.	.	.	.	.	.	.	.	.	.	.	.	.
!LO:TX:a:t=arco	!	!LO:TX:a:t=arco	!	!	!	!	!	!	!	!	!	!	!	!	!	!	!	!	!	!	!	!	!	!
8C	.	8C	.	16f'	.	16cc'	.	16aa'	.	.	.	.	.	.	.	.	.	.	.	.	.	.	.	.
.	.	.	.	16g'JJ	[[	16dd'JJ	[[	16bb-'JJ	[[	.	.	.	.	.	.	.	.	.	.	.	.	.	.	.
=18	=18	=18	=18	=18	=18	=18	=18	=18	=18	=18	=18	=18	=18	=18	=18	=18	=18	=18	=18	=18	=18	=18	=18	=18
*	*	*	*	*	*	*	*	*	*	*^	*^	*	*	*	*	*	*	*	*	*	*	*	*	*
4F	f	4F	f	4f	f	8aL	f	4ccc	f	4c	4F	4cc	8aL	O-	1r	.	2r	2r	1r	.	1r	.	1r	.	1r	.
.	.	.	.	.	.	8g	.	.	.	.	.	.	8gJ	.	.	.	.	.	.	.	.	.	.	.	.	.
16FLL	.	16FLL	.	8cL	.	8f	.	8bb-L	.	8c	16FLL	8b-	8f	-to	.	.	.	.	.	.	.	.	.	.	.	.
16G	.	16G	.	.	.	.	.	.	.	.	16GJJ	.	.	.	.	.	.	.	.	.	.	.	.	.	.	.
16A	.	16A	.	8cJ	.	8fJ	.	8aaJ	.	8c	16ALL	8a	8f	nad-	.	.	.	.	.	.	.	.	.	.	.	.
16B-JJ	.	16B-JJ	.	.	.	.	.	.	.	.	16B-JJ	.	.	.	.	.	.	.	.	.	.	.	.	.	.	.
4c	.	4c	.	16cLL	.	16eLL	.	16ggLL	.	8cL	4c	4g	4e	-cho-	.	.	2r	2r	.	.	.	.	.	.	.	.
.	.	.	.	16e	.	16g	.	16cc	.	.	.	.	.	.	.	.	.	.	.	.	.	.	.	.	.	.
.	.	.	.	16f	.	16a	.	16dd	.	8dJ	.	.	.	.	.	.	.	.	.	.	.	.	.	.	.	.
.	.	.	.	16gJJ	.	16b-JJ	.	16eeJJ	.	.	.	.	.	.	.	.	.	.	.	.	.	.	.	.	.	.
4C	.	4C	.	16aLL	.	16ccLL	.	16ffLL	.	4c	4C	4g	4e	-dzi	.	.	.	.	.	.	.	.	.	.	.	.
.	.	.	.	16b-	.	16dd	.	16gg	.	.	.	.	.	.	.	.	.	.	.	.	.	.	.	.	.	.
.	.	.	.	16a	.	16cc	.	16aa	.	.	.	.	.	.	.	.	.	.	.	.	.	.	.	.	.	.
.	.	.	.	16gJJ	.	16b-JJ	.	16bb-JJ	.	.	.	.	.	.	.	.	.	.	.	.	.	.	.	.	.	.
=19	=19	=19	=19	=19	=19	=19	=19	=19	=19	=19	=19	=19	=19	=19	=19	=19	=19	=19	=19	=19	=19	=19	=19	=19	=19	=19
8F'~L	.	8F'~L	.	8f'~L	.	8a'~L	.	8ccc'~L	.	8c	8F	8cc	8a	mój	1r	.	1r	1r	1r	.	1r	.	2.r	.	1r	.
8F'~J	.	8F'~J	.	8f'~	.	8g'~	.	8ccc'~	.	8c	8F	8cc	8g	U-	.	.	.	.	.	.	.	.	.	.	.	.
16FLL	.	16FLL	.	8c	.	8f	.	8bb-	.	8c	16FLL	8b-	8f	-mi-	.	.	.	.	.	.	.	.	.	.	.	.
16G	.	16G	.	.	.	.	.	.	.	.	16GJJ	.	.	.	.	.	.	.	.	.	.	.	.	.	.	.
16A	.	16A	.	8cJ	.	8fJ	.	8aaJ	.	8c	16ALL	8a	8f	-ło-	.	.	.	.	.	.	.	.	.	.	.	.
16B-JJ	.	16B-JJ	.	.	.	.	.	.	.	.	16B-JJ	.	.	.	.	.	.	.	.	.	.	.	.	.	.	.
4c	.	4c	.	16cLL	.	16eLL	.	16ggLL	.	8cL	4c	4g	4e	-wa-	.	.	.	.	.	.	.	.	.	.	.	.
.	.	.	.	16e	.	16g	.	16cc	.	.	.	.	.	.	.	.	.	.	.	.	.	.	.	.	.	.
.	.	.	.	16f	.	16a	.	16dd	.	8dJ	.	.	.	.	.	.	.	.	.	.	.	.	.	.	.	.
.	.	.	.	16gJJ	.	16b-JJ	.	16eeJJ	.	.	.	.	.	.	.	.	.	.	.	.	.	.	.	.	.	.
4C	.	4C	.	16aLL	.	16ccLL	.	16ffLL	.	4c	4C	4g	4e	-ny,	.	.	.	.	.	.	.	.	8r	.	.	.
.	.	.	.	16b-	.	16dd	.	16gg	.	.	.	.	.	.	.	.	.	.	.	.	.	.	.	.	.	.
.	.	.	.	16a	.	16cc	.	16aa	.	.	.	.	.	.	.	.	.	.	.	.	.	.	16aLL	f	.	.
.	.	.	.	16gJJ	.	16b-JJ	.	16bb-JJ	.	.	.	.	.	.	.	.	.	.	.	.	.	.	16b-JJ	.	.	.
=20	=20	=20	=20	=20	=20	=20	=20	=20	=20	=20	=20	=20	=20	=20	=20	=20	=20	=20	=20	=20	=20	=20	=20	=20	=20	=20
2AA	.	2AA	.	4f	.	4cc	.	4ccc	.	4c	4AA	4cc	4f	o-	1r	.	1r	1r	1r	.	1r	.	4cc	.	1r	.
.	.	.	.	4f	.	4cc	.	4ccc	.	4c	4AA	4cc	4f	-to	.	.	.	.	.	.	.	.	4cc	.	.	.
2BB-	.	2BB-	.	8dL	.	8ddL	.	8bb-L	.	8B-	8BB-	8dd	8f	sły-	.	.	.	.	.	.	.	.	8ddL	.	.	.
.	.	.	.	8d	.	8cc	.	8aa	.	8B-	8BB-	8dd	8f	-szę	.	.	.	.	.	.	.	.	8dd	.	.	.
.	.	.	.	8e	.	8b-	.	8gg	.	16B-LL	8BB-	8ee	8b-	je-	.	.	.	.	.	.	.	.	8ee	.	.	.
.	.	.	.	.	.	.	.	.	.	16cJJ	.	.	.	.	.	.	.	.	.	.	.	.	.	.	.	.
.	.	.	.	8fJ	.	8aJ	.	8ffJ	.	16dLL	8BB-	8ff	8a	-go	.	.	.	.	.	.	.	.	8ffJ	.	.	.
.	.	.	.	.	.	.	.	.	.	16eJJ	.	.	.	.	.	.	.	.	.	.	.	.	.	.	.	.
=21	=21	=21	=21	=21	=21	=21	=21	=21	=21	=21	=21	=21	=21	=21	=21	=21	=21	=21	=21	=21	=21	=21	=21	=21	=21	=21
2.C	.	2.C	.	2f	.	2.cc	.	2.gg	.	2f	1C	1cc	1g	głos!	1r	.	1r	1r	1r	.	1r	.	2.cc	.	1r	.
.	.	.	.	4e	.	.	.	.	.	2e	.	.	.	.	.	.	.	.	.	.	.	.	.	.	.	.
8CL	.	8CL	.	16B-LL	.	8fL	.	16ddLL	.	.	.	.	.	.	.	.	.	.	.	.	.	.	4r	.	.	.
.	.	.	.	16c	.	.	.	16ee	.	.	.	.	.	.	.	.	.	.	.	.	.	.	.	.	.	.
8AAJ	.	8AAJ	.	16d	.	8ccJ	.	16ff	.	.	.	.	.	.	.	.	.	.	.	.	.	.	.	.	.	.
.	.	.	.	16eJJ	.	.	.	16ggJJ	.	.	.	.	.	.	.	.	.	.	.	.	.	.	.	.	.	.
=22	=22	=22	=22	=22	=22	=22	=22	=22	=22	=22	=22	=22	=22	=22	=22	=22	=22	=22	=22	=22	=22	=22	=22	=22	=22	=22
4D	.	4D	.	4f	.	4dd	.	4aa	.	4A	4D	4a	8fL	O-	1r	.	1r	1r	1r	.	1r	.	1r	.	1r	.
.	.	.	.	.	.	.	.	.	.	.	.	.	8eJ	.	.	.	.	.	.	.	.	.	.	.	.	.
16DLL	.	16DLL	.	8eL	.	8ccL	.	8ggL	.	8A	16DLL	8g	8d	-to	.	.	.	.	.	.	.	.	.	.	.	.
16E	.	16E	.	.	.	.	.	.	.	.	16EJJ	.	.	.	.	.	.	.	.	.	.	.	.	.	.	.
16F	.	16F	.	8dJ	.	8b-J	.	8ffJ	.	8A	16FLL	8f	8d	nad-	.	.	.	.	.	.	.	.	.	.	.	.
16GJJ	.	16GJJ	.	.	.	.	.	.	.	.	16GJJ	.	.	.	.	.	.	.	.	.	.	.	.	.	.	.
4A	.	4A	.	8c#XL	.	16aLL	.	16eeLL	.	8AL	4A	4e	4c#X	-cho-	.	.	.	.	.	.	.	.	.	.	.	.
.	.	.	.	.	.	16e	.	16a	.	.	.	.	.	.	.	.	.	.	.	.	.	.	.	.	.	.
.	.	.	.	16BnL	.	16d	.	16bn	.	8BnJ	.	.	.	.	.	.	.	.	.	.	.	.	.	.	.	.
.	.	.	.	16AJJ	.	16eJJ	.	16cc#XJJ	.	.	.	.	.	.	.	.	.	.	.	.	.	.	.	.	.	.
4AA	.	4AA	.	16BLL	.	16fLL	.	16ddLL	.	4A	4AA	4e	4c#	-dzi	.	.	.	.	.	.	.	.	.	.	.	.
.	.	.	.	16c#	.	16a	.	16ee	.	.	.	.	.	.	.	.	.	.	.	.	.	.	.	.	.	.
.	.	.	.	16d	.	16b-	.	16ff	.	.	.	.	.	.	.	.	.	.	.	.	.	.	.	.	.	.
.	.	.	.	16eJJ	.	16ccJJ	.	16ggJJ	.	.	.	.	.	.	.	.	.	.	.	.	.	.	.	.	.	.
=23	=23	=23	=23	=23	=23	=23	=23	=23	=23	=23	=23	=23	=23	=23	=23	=23	=23	=23	=23	=23	=23	=23	=23	=23	=23	=23
8D'~L	.	8D'~L	.	8f'~L	.	8dd'~L	.	8aa'~L	.	8A	8D	8a	8f	mój	1r	.	1r	1r	1r	.	1r	.	1r	.	2.r	.
8D'~J	.	8D'~J	.	8f'~	.	8dd'~	.	8aa'~	.	8A	8D	8a	8e	U-	.	.	.	.	.	.	.	.	.	.	.	.
16DLL	.	16DLL	.	8e	.	8cc	.	8gg	.	8A	16DLL	8g	8d	-mi-	.	.	.	.	.	.	.	.	.	.	.	.
16E	.	16E	.	.	.	.	.	.	.	.	16EJJ	.	.	.	.	.	.	.	.	.	.	.	.	.	.	.
16F	.	16F	.	8dJ	.	8b-J	.	8ffJ	.	8A	16FLL	8f	8d	-ło-	.	.	.	.	.	.	.	.	.	.	.	.
16GJJ	.	16GJJ	.	.	.	.	.	.	.	.	16GJJ	.	.	.	.	.	.	.	.	.	.	.	.	.	.	.
4A	.	4A	.	4c#X	.	8aL	.	4ee	.	8AL	4A	4e	4c#X	-wa-	.	.	.	.	.	.	.	.	.	.	.	.
.	.	.	.	.	.	8bnJ	.	.	.	8BnJ	.	.	.	.	.	.	.	.	.	.	.	.	.	.	.	.
4AA	.	4AA	.	4c#	.	4a	.	4ee	.	4A	4AA	4e	4c#	-ny,	.	.	.	.	.	.	.	.	.	.	8r	.
.	.	.	.	.	.	.	.	.	.	.	.	.	.	.	.	.	.	.	.	.	.	.	.	.	16eeLL	f
.	.	.	.	.	.	.	.	.	.	.	.	.	.	.	.	.	.	.	.	.	.	.	.	.	16ffJJ	.
=24	=24	=24	=24	=24	=24	=24	=24	=24	=24	=24	=24	=24	=24	=24	=24	=24	=24	=24	=24	=24	=24	=24	=24	=24	=24	=24
4GG	.	4GG	.	4d	.	4b-	.	4gg	.	4B-	4GG	4g	4d	o-	1r	.	1r	1r	1r	.	1r	.	1r	.	8gg	.
.	.	.	.	.	.	.	.	.	.	.	.	.	.	.	.	.	.	.	.	.	.	.	.	.	4bb-	.
4BB-	.	4BB-	.	4d	.	4b-	.	4ff	.	4B-	4BB-	4f	4d	-to	.	.	.	.	.	.	.	.	.	.	.	.
.	.	.	.	.	.	.	.	.	.	.	.	.	.	.	.	.	.	.	.	.	.	.	.	.	8aa	.
8C'L	.	8C'L	.	16c'LL	.	16a'LL	.	16ff'LL	.	8G	8C	8f	8c	sły-	.	.	.	.	.	.	.	.	.	.	4.ff	.
.	.	.	.	16B-'	.	16g'	.	16ee'	.	.	.	.	.	.	.	.	.	.	.	.	.	.	.	.	.	.
8C'	.	8C'	.	16A'	.	16f'	.	16dd'	.	8G	8C	8f	8c	-szę	.	.	.	.	.	.	.	.	.	.	.	.
.	.	.	.	16G'JJ	.	16e'JJ	.	16cc'JJ	.	.	.	.	.	.	.	.	.	.	.	.	.	.	.	.	.	.
8C'	.	8C'	.	16c'LL	.	16g'LL	.	16ff'LL	.	8G	8C	8f	8c	je-	.	.	.	.	.	.	.	.	.	.	.	.
.	.	.	.	16A'	.	16f'	.	16cc'	.	.	.	.	.	.	.	.	.	.	.	.	.	.	.	.	.	.
8C'J	.	8C'J	.	16c'	.	16g'	.	16gg'	.	8G	8C	8e	8c	-go	.	.	.	.	.	.	.	.	.	.	8gg	.
.	.	.	.	16d'JJ	.	16b-'JJ	.	16ee'JJ	.	.	.	.	.	.	.	.	.	.	.	.	.	.	.	.	.	.
=25	=25	=25	=25	=25	=25	=25	=25	=25	=25	=25	=25	=25	=25	=25	=25	=25	=25	=25	=25	=25	=25	=25	=25	=25	=25	=25
2F	.	2F	.	2c	.	2a	.	2ff	.	2A	2F	2f	2c	głos!	1r	.	1r	2r	2r	.	1r	.	1r	.	2ff	.
4r	.	4r	.	4r	.	4r	.	4r	.	2r	2r	2r	2r	.	.	.	.	4r	2r	.	.	.	.	.	2r	.
4r	.	4r	.	8r	.	8r	.	8r	.	.	.	.	.	.	.	.	.	16fLL	.	.	.	.	.	.	.	.
.	.	.	.	.	.	.	.	.	.	.	.	.	.	.	.	.	.	16g	.	.	.	.	.	.	.	.
!	!	!	!	!LO:TX:a:t=pizz.	!	!LO:TX:a:t=pizz.	!	!LO:TX:a:t=pizz.	!	!	!	!	!	!	!	!	!	!	!	!	!	!	!	!	!	!
.	.	.	.	8c	p	8f	p	8a	p	.	.	.	.	.	.	.	.	16a	.	.	.	.	.	.	.	.
.	.	.	.	.	.	.	.	.	.	.	.	.	.	.	.	.	.	16b-JJ	.	.	.	.	.	.	.	.
=26||	=26||	=26||	=26||	=26||	=26||	=26||	=26||	=26||	=26||	=26||	=26||	=26||	=26||	=26||	=26||	=26||	=26||	=26||	=26||	=26||	=26||	=26||	=26||	=26||	=26||	=26||
1r	.	1r	.	8c#X	.	8e	.	8a	.	1r	1r	1r	1r	.	4r	.	1r	4c#X: 4e: 4a: 4ee:	1r	.	1r	.	8r	.	1r	.
.	.	.	.	8r	.	4r	.	4r	.	.	.	.	.	.	.	.	.	.	.	.	.	.	8aL	mf	.	.
.	.	.	.	8c#	.	.	.	.	.	.	.	.	.	.	4ee	Mój	.	4r	.	.	.	.	8b-	.	.	.
.	.	.	.	8r	.	8e	.	8b-	.	.	.	.	.	.	.	.	.	.	.	.	.	.	8aJ	.	.	.
.	.	.	.	8d	.	8f	.	8a	.	.	.	.	.	.	8ff	U-	.	4d: 4f: 4a: 4dd:	.	.	.	.	4f	.	.	.
.	.	.	.	8r	.	4r	.	4r	.	.	.	.	.	.	8ee	-ko-	.	.	.	.	.	.	.	.	.	.
.	.	.	.	8d	.	.	.	.	.	.	.	.	.	.	8dd	-cha-	.	4r	.	.	.	.	8dL	.	.	.
.	.	.	.	8r	.	16fLL	.	16aLL	.	.	.	.	.	.	8cc	-ny	.	.	.	.	.	.	8fJ	.	.	.
.	.	.	.	.	.	16aJJ	.	16ddJJ	.	.	.	.	.	.	.	.	.	.	.	.	.	.	.	.	.	.
*	*	*	*	*	*	*	*	*	*	*v	*v	*	*	*	*	*	*	*	*	*	*	*	*	*	*	*
*	*	*	*	*	*	*	*	*	*	*	*v	*v	*	*	*	*	*	*	*	*	*	*	*	*	*
=27	=27	=27	=27	=27	=27	=27	=27	=27	=27	=27	=27	=27	=27	=27	=27	=27	=27	=27	=27	=27	=27	=27	=27	=27
1r	.	1r	.	8e	.	8g	.	8cc	.	1r	1r	.	4.cc	zbli-	1r	4e: 4g: 4cc: 4gg:	1r	.	1r	.	4.g	.	1r	.
.	.	.	.	8r	.	4r	.	4r	.	.	.	.	.	.	.	.	.	.	.	.	.	.	.	.
.	.	.	.	8c	.	.	.	.	.	.	.	.	.	.	.	4r	.	.	.	.	.	.	.	.
.	.	.	.	8r	.	8e	.	8b-	.	.	.	.	8b-	-ża	.	.	.	.	.	.	8e	.	.	.
.	.	.	.	8F	.	8c	.	8a	.	.	.	.	2a	się,	.	4f: 4a: 4cc: 4ff:	.	.	.	.	2f	.	.	.
.	.	.	.	8r	.	4r	.	4r	.	.	.	.	.	.	.	.	.	.	.	.	.	.	.	.
.	.	.	.	8A	.	.	.	.	.	.	.	.	.	.	.	4r	.	.	.	.	.	.	.	.
.	.	.	.	8r	.	16dLL	.	16gLL	.	.	.	.	.	.	.	.	.	.	.	.	.	.	.	.
.	.	.	.	.	.	16cJJ	.	16aJJ	.	.	.	.	.	.	.	.	.	.	.	.	.	.	.	.
=28	=28	=28	=28	=28	=28	=28	=28	=28	=28	=28	=28	=28	=28	=28	=28	=28	=28	=28	=28	=28	=28	=28	=28	=28
1r	.	1r	.	8G	.	8d	.	8b-	.	1r	1r	.	4r	.	1r	4g: 4b-: 4dd: 4gg:	1r	.	1r	.	4r	.	1r	.
.	.	.	.	8r	.	4r	.	4r	.	.	.	.	.	.	.	.	.	.	.	.	.	.	.	.
.	.	.	.	8G	.	.	.	.	.	.	.	.	8b-	o-	.	4r	.	.	.	.	12gL	.	.	.
.	.	.	.	.	.	.	.	.	.	.	.	.	.	.	.	.	.	.	.	.	12a	.	.	.
.	.	.	.	8r	.	8d	.	8b-	.	.	.	.	8b-	-to	.	.	.	.	.	.	.	.	.	.
.	.	.	.	.	.	.	.	.	.	.	.	.	.	.	.	.	.	.	.	.	12b-J	.	.	.
.	.	.	.	8A	.	8f	.	8cc	.	.	.	.	8cc	bie-	.	4f: 4g: 4a: 4cc: 4ff:	.	.	.	.	8cc	.	.	.
.	.	.	.	8r	.	4r	.	4r	.	.	.	.	8cc	-gnie	.	.	.	.	.	.	4f	.	.	.
.	.	.	.	8A	.	.	.	.	.	.	.	.	8b-	już	.	4r	.	.	.	.	.	.	.	.
.	.	.	.	8r	.	16dLL	.	16b-LL	.	.	.	.	8a	przez	.	.	.	.	.	.	8f	.	.	.
.	.	.	.	.	.	16eJJ	.	16ccJJ	.	.	.	.	.	.	.	.	.	.	.	.	.	.	.	.
=29	=29	=29	=29	=29	=29	=29	=29	=29	=29	=29	=29	=29	=29	=29	=29	=29	=29	=29	=29	=29	=29	=29	=29	=29
1r	.	1r	.	8B-	.	8f	.	8dd	.	1r	1r	.	(4f	gó-	2r	4B-: 4f: 4b-: 4cc: 4dd:	2r	.	1r	.	4.dd	.	1r	.
.	.	.	.	8r	.	4r	.	4r	.	.	.	.	.	.	.	.	.	.	.	.	.	.	.	.
.	.	.	.	8G	.	.	.	.	.	.	.	.	4g)	.	.	2.r	.	.	.	.	.	.	.	.
.	.	.	.	8r	.	8d	.	8b-	.	.	.	.	.	.	.	.	.	.	.	.	8cc	.	.	.
.	.	.	.	4c	.	4e	.	4g	.	.	.	.	2g	-ry;	16r	.	8r	.	.	.	2cc	.	.	.
.	.	.	.	.	.	.	.	.	.	.	.	.	.	.	16cLL	.	.	.	.	.	.	.	.	.
.	.	.	.	.	.	.	.	.	.	.	.	.	.	.	16B-	.	8CL	mf	.	.	.	.	.	.
.	.	.	.	.	.	.	.	.	.	.	.	.	.	.	16AJJ	.	.	.	.	.	.	.	.	.
.	.	.	.	4r	.	4r	.	4r	.	.	.	.	.	.	16GLL	.	8BB-	.	.	.	.	.	.	.
.	.	.	.	.	.	.	.	.	.	.	.	.	.	.	16F	.	.	.	.	.	.	.	.	.
.	.	.	.	.	.	.	.	.	.	.	.	.	.	.	16E	.	8CJ	.	.	.	.	.	.	.
.	.	.	.	.	.	.	.	.	.	.	.	.	.	.	16DJJ	.	.	.	.	.	.	.	.	.
=30	=30	=30	=30	=30	=30	=30	=30	=30	=30	=30	=30	=30	=30	=30	=30	=30	=30	=30	=30	=30	=30	=30	=30	=30
*	*	*	*	*	*	*	*	*	*	*	*	*	*	*	*^	*	*	*	*	*	*	*	*	*
!	!	!	!	!LO:TX:a:t=arco	!	!	!	!	!	!	!	!	!	!	!	!	!	!	!	!	!	!	!	!	!
1r	.	1r	.	2c#X	.	1r	.	1r	.	1r	1r	.	4r	.	16r	2C#X	4r	4C#X'	.	8r	.	1r	.	1r	.
.	.	.	.	.	.	.	.	.	.	.	.	.	.	.	16ELL	.	.	.	.	.	.	.	.	.	.
.	.	.	.	.	.	.	.	.	.	.	.	.	.	.	16A	.	.	.	.	8e'L	mf	.	.	.	.
.	.	.	.	.	.	.	.	.	.	.	.	.	.	.	16c#XJJ	.	.	.	.	.	.	.	.	.	.
.	.	.	.	.	.	.	.	.	.	.	.	.	4ee	po-	16e	.	16r	8r	.	8f'	.	.	.	.	.
.	.	.	.	.	.	.	.	.	.	.	.	.	.	.	16r	.	16aLL	.	.	.	.	.	.	.	.
.	.	.	.	.	.	.	.	.	.	.	.	.	.	.	16r	.	16cc#X	8AA'	.	8e'J	.	.	.	.	.
.	.	.	.	.	.	.	.	.	.	.	.	.	.	.	16r	.	16eJJ	.	.	.	.	.	.	.	.
.	.	.	.	2d	.	.	.	.	.	.	.	.	8ff	-do-	16r	2D	16r	4D'	.	4a	.	.	.	.	.
.	.	.	.	.	.	.	.	.	.	.	.	.	.	.	16FLL	.	8r	.	.	.	.	.	.	.	.
.	.	.	.	.	.	.	.	.	.	.	.	.	8ee	-bny	16A	.	.	.	.	.	.	.	.	.	.
.	.	.	.	.	.	.	.	.	.	.	.	.	.	.	16dJJ	.	16r	.	.	.	.	.	.	.	.
.	.	.	.	.	.	.	.	.	.	.	.	.	8dd	do	16r	.	16aLL	8r	.	12ddL	.	.	.	.	.
.	.	.	.	.	.	.	.	.	.	.	.	.	.	.	16r	.	16dd	.	.	.	.	.	.	.	.
.	.	.	.	.	.	.	.	.	.	.	.	.	.	.	.	.	.	.	.	12a	.	.	.	.	.
.	.	.	.	.	.	.	.	.	.	.	.	.	8cc	ga-	8r	.	16f	8F'	.	.	.	.	.	.	.
.	.	.	.	.	.	.	.	.	.	.	.	.	.	.	.	.	.	.	.	12fJ	.	.	.	.	.
.	.	.	.	.	.	.	.	.	.	.	.	.	.	.	.	.	16aJJ	.	.	.	.	.	.	.	.
=31	=31	=31	=31	=31	=31	=31	=31	=31	=31	=31	=31	=31	=31	=31	=31	=31	=31	=31	=31	=31	=31	=31	=31	=31	=31
!	!	!	!	!	!	!LO:TX:a:t=arco	!	!	!	!	!	!	!	!	!	!	!	!	!	!	!	!	!	!	!
1r	.	1r	.	2e	.	2g	p	1r	.	1r	1r	.	(4cc	-ze-	16r	2E	4r	4E'	.	4.g	.	1r	.	1r	.
.	.	.	.	.	.	.	.	.	.	.	.	.	.	.	16GLL	.	.	.	.	.	.	.	.	.	.
.	.	.	.	.	.	.	.	.	.	.	.	.	.	.	16c	.	.	.	.	.	.	.	.	.	.
.	.	.	.	.	.	.	.	.	.	.	.	.	.	.	16eJJ	.	.	.	.	.	.	.	.	.	.
.	.	.	.	.	.	.	.	.	.	.	.	.	4gg)	.	4r	.	16gLL	8r	.	.	.	.	.	.	.
.	.	.	.	.	.	.	.	.	.	.	.	.	.	.	.	.	16cc	.	.	.	.	.	.	.	.
.	.	.	.	.	.	.	.	.	.	.	.	.	.	.	.	.	16ee	8C'	.	16fLL	.	.	.	.	.
.	.	.	.	.	.	.	.	.	.	.	.	.	.	.	.	.	16gJJ	.	.	16gJJ	.	.	.	.	.
.	.	.	.	2c	.	2f	.	.	.	.	.	.	2ff	-li,	16r	2F	16r	4F'	.	4.a	.	.	.	.	.
.	.	.	.	.	.	.	.	.	.	.	.	.	.	.	16ALL	.	16r	.	.	.	.	.	.	.	.
.	.	.	.	.	.	.	.	.	.	.	.	.	.	.	16c	.	8r	.	.	.	.	.	.	.	.
.	.	.	.	.	.	.	.	.	.	.	.	.	.	.	16fJJ	.	.	.	.	.	.	.	.	.	.
.	.	.	.	.	.	.	.	.	.	.	.	.	.	.	4r	.	16aLL	4FF'	.	.	.	.	.	.	.
.	.	.	.	.	.	.	.	.	.	.	.	.	.	.	.	.	16ff	.	.	.	.	.	.	.	.
.	.	.	.	.	.	.	.	.	.	.	.	.	.	.	.	.	16cc	.	.	8r	.	.	.	.	.
.	.	.	.	.	.	.	.	.	.	.	.	.	.	.	.	.	16aJJ	.	.	.	.	.	.	.	.
=32	=32	=32	=32	=32	=32	=32	=32	=32	=32	=32	=32	=32	=32	=32	=32	=32	=32	=32	=32	=32	=32	=32	=32	=32	=32
1r	.	4G	mp	2d	mp	2f	mp	1r	[[	1r	1r	.	4r	.	16r	2G	8r	4GG'	.	8r	.	1r	.	1r	.
.	.	.	.	.	.	.	.	.	.	.	.	.	.	.	16B-LL	.	.	.	.	.	.	.	.	.	.
.	.	.	.	.	.	.	.	.	.	.	.	.	.	.	16dJJ	.	16r	.	.	16b-LL	.	.	.	.	.
.	.	.	.	.	.	.	.	.	.	.	.	.	.	.	16r	.	16g	.	.	16ccJJ	.	.	.	.	.
.	.	8DL	.	.	.	.	.	.	.	.	.	.	8ff	do	4r	.	16b-LL	8r	.	8dd'L	.	.	.	.	.
.	.	.	.	.	.	.	.	.	.	.	.	.	.	.	.	.	16dd	.	.	.	.	.	.	.	.
.	.	8GGJ	.	.	.	.	.	.	.	.	.	.	8ee	mło-	.	.	16ff	16FF'LL	.	8g'J	.	.	.	.	.
.	.	.	.	.	.	.	.	.	.	.	.	.	.	.	.	.	16b-JJ	16GG'JJ	.	.	.	.	.	.	.
.	.	4AA	.	2c	[[	2f	[[	.	.	.	.	.	8ff	-de-	2r	2A	16r	4AA'	.	8r	.	.	.	.	.
.	.	.	.	.	.	.	.	.	.	.	.	.	.	.	.	.	16fLL	.	.	.	.	.	.	.	.
.	.	.	.	.	.	.	.	.	.	.	.	.	4cc	-go	.	.	16a	.	.	16aLL	.	.	.	.	.
.	.	.	.	.	.	.	.	.	.	.	.	.	.	.	.	.	16ccJJ	.	.	16b-JJ	.	.	.	.	.
.	.	8FL	.	.	.	.	.	.	.	.	.	.	.	.	.	.	16ffLL	8r	.	8cc'L	.	.	.	.	.
.	.	.	.	.	.	.	.	.	.	.	.	.	.	.	.	.	16aa	.	.	.	.	.	.	.	.
.	.	8AJ	[[	.	.	.	.	.	.	.	.	.	8cc	je-	.	.	16ccc	16GG'LL	.	8f'J	.	.	.	.	.
.	.	.	.	.	.	.	.	.	.	.	.	.	.	.	.	.	16fffJJ	16AA'JJ	.	.	.	.	.	.	.
=33	=33	=33	=33	=33	=33	=33	=33	=33	=33	=33	=33	=33	=33	=33	=33	=33	=33	=33	=33	=33	=33	=33	=33	=33	=33
!	!	!	!	!	!	!	!	!LO:TX:a:t=arco	!	!	!	!	!	!	!	!	!	!	!	!	!	!	!	!	!
1r	.	8B-L	mf < <	2d	mf < <	2f	mf < <	2b-	mf < <	1r	1r	.	(4.dd	-le-	2r	2B-	16dddLL	4BB-'	.	8r	.	1r	.	1r	.
.	.	.	.	.	.	.	.	.	.	.	.	.	.	.	.	.	16ccc	.	.	.	.	.	.	.	.
.	.	8F	.	.	.	.	.	.	.	.	.	.	.	.	.	.	16bb-	.	.	16fLL	.	.	.	.	.
.	.	.	.	.	.	.	.	.	.	.	.	.	.	.	.	.	16ffJJ	.	.	16eJJ	.	.	.	.	.
.	.	8D	.	.	.	.	.	.	.	.	.	.	.	.	.	.	16ddLL	16r	.	16fLL	.	.	.	.	.
.	.	.	.	.	.	.	.	.	.	.	.	.	.	.	.	.	16cc	16FFLL	.	16cc	.	.	.	.	.
.	.	8BB-J	.	.	.	.	.	.	.	.	.	.	8cc)	.	.	.	16b-	16BB-	.	16b-	.	.	.	.	.
.	.	.	.	.	.	.	.	.	.	.	.	.	.	.	.	.	16aJJ	16DJJ	.	16aJJ	.	.	.	.	.
.	.	4C	.	4c	.	4f	.	4g	.	.	.	.	2cc	-nia.	4r	4C: 4G:	4c: 4f: 4g:	2C	.	2g	.	.	.	.	.
.	.	16GLL	.	16B-LL	.	16cLL	.	16eLL	.	.	.	.	.	.	4r	4C: 4G:	4c: 4e: 4g:	.	.	.	.	.	.	.	.
.	.	16F	.	16A	.	16d	.	16f	.	.	.	.	.	.	.	.	.	.	.	.	.	.	.	.	.
.	.	16E	.	16B-	.	16e	.	16g	.	.	.	.	.	.	.	.	.	.	.	.	.	.	.	.	.
.	.	16CJJ	[ f	16dJJ	[ f	16gJJ	[ f	16b-JJ	[ f	.	.	.	.	.	.	.	.	.	.	.	.	.	.	.	.
=34||	=34||	=34||	=34||	=34||	=34||	=34||	=34||	=34||	=34||	=34||	=34||	=34||	=34||	=34||	=34||	=34||	=34||	=34||	=34||	=34||	=34||	=34||	=34||	=34||	=34||
*	*	*	*	*	*	*	*	*	*	*^	*^	*	*	*	*	*	*	*	*	*	*	*	*	*	*
2.r	.	2.r	.	2r	.	2r	.	2r	.	4c	4F	4cc	8aL	O-	1r	.	1r	1r	1r	1r	.	2.r	.	1r	.	1r	.
.	.	.	.	.	.	.	.	.	.	.	.	.	8gJ	.	.	.	.	.	.	.	.	.	.	.	.	.	.
.	.	.	.	.	.	.	.	.	.	8c	16FLL	8b-	8f	-to	.	.	.	.	.	.	.	.	.	.	.	.	.
.	.	.	.	.	.	.	.	.	.	.	16GJJ	.	.	.	.	.	.	.	.	.	.	.	.	.	.	.	.
.	.	.	.	.	.	.	.	.	.	8c	16A	8a	8f	nad-	.	.	.	.	.	.	.	.	.	.	.	.	.
.	.	.	.	.	.	.	.	.	.	.	16B-	.	.	.	.	.	.	.	.	.	.	.	.	.	.	.	.
.	.	.	.	4r	.	4r	.	2r	.	8cL	4c	4g	4e	-cho-	.	.	.	.	.	.	.	.	.	.	.	.	.
.	.	.	.	.	.	.	.	.	.	8dJ	.	.	.	.	.	.	.	.	.	.	.	.	.	.	.	.	.
8r	.	8r	.	16ALL	mf	16fLL	mf	.	.	4c	4C	4g	4e	-dzi	.	.	.	.	.	.	.	8r	.	.	.	.	.
.	.	.	.	16B-	.	16g	.	.	.	.	.	.	.	.	.	.	.	.	.	.	.	.	.	.	.	.	.
!LO:TX:a:t=pizz.	!	!LO:TX:a:t=pizz.	!	!	!	!	!	!	!	!	!	!	!	!	!	!	!	!	!	!	!	!	!	!	!	!	!
8C	mf	8C	mf	16c	.	16a	.	.	.	.	.	.	.	.	.	.	.	.	.	.	.	16aLL	.	.	.	.	.
.	.	.	.	16B-JJ	.	16b-JJ	.	.	.	.	.	.	.	.	.	.	.	.	.	.	.	16b-JJ	.	.	.	.	.
*	*	*	*	*	*	*	*	*	*	*	*	*	*	*	*	*	*v	*v	*	*	*	*	*	*	*	*	*
=35	=35	=35	=35	=35	=35	=35	=35	=35	=35	=35	=35	=35	=35	=35	=35	=35	=35	=35	=35	=35	=35	=35	=35	=35	=35	=35
8F	.	8F	.	8A'~L	.	8cc'~L	.	1r	.	8c	8F	8cc	8a	mój	1r	.	1r	1r	1r	.	8cc'~L	.	1r	.	2.r	.
8r	.	8r	.	8G'~	.	8cc'~	.	.	.	8c	8F	8cc	8g	U-	.	.	.	.	.	.	8cc'~	.	.	.	.	.
4r	.	4r	.	8F	.	8b-	.	.	.	8c	16FLL	8b-	8f	-mi-	.	.	.	.	.	.	8b-	.	.	.	.	.
.	.	.	.	.	.	.	.	.	.	.	16GJJ	.	.	.	.	.	.	.	.	.	.	.	.	.	.	.
.	.	.	.	8cJ	.	8aJ	.	.	.	8c	16ALL	8a	8f	-ło-	.	.	.	.	.	.	8aJ	.	.	.	.	.
.	.	.	.	.	.	.	.	.	.	.	16B-JJ	.	.	.	.	.	.	.	.	.	.	.	.	.	.	.
4C	.	4C	.	16cLL	.	16gLL	.	.	.	8cL	4c	4g	4e	-wa-	.	.	.	.	.	.	4g	.	.	.	.	.
.	.	.	.	16G	.	16c	.	.	.	.	.	.	.	.	.	.	.	.	.	.	.	.	.	.	.	.
.	.	.	.	16F	.	16d	.	.	.	8dJ	.	.	.	.	.	.	.	.	.	.	.	.	.	.	.	.
.	.	.	.	16GJJ	.	16eJJ	.	.	.	.	.	.	.	.	.	.	.	.	.	.	.	.	.	.	.	.
4C	.	4C	.	16ALL	.	16fLL	.	.	.	4c	4C	4g	4e	-ny,	.	.	.	.	.	.	4g	.	.	.	8r	.
.	.	.	.	16B-	.	16g	.	.	.	.	.	.	.	.	.	.	.	.	.	.	.	.	.	.	.	.
.	.	.	.	16c	.	16a	.	.	.	.	.	.	.	.	.	.	.	.	.	.	.	.	.	.	16aLL	mf
.	.	.	.	16dJJ	.	16b-JJ	.	.	.	.	.	.	.	.	.	.	.	.	.	.	.	.	.	.	16b-JJ	.
=36	=36	=36	=36	=36	=36	=36	=36	=36	=36	=36	=36	=36	=36	=36	=36	=36	=36	=36	=36	=36	=36	=36	=36	=36	=36	=36
4AA	.	4AA	.	2f	.	2cc	.	1r	.	4c	4AA	4cc	4f	o-	1r	.	1r	1r	1r	.	1r	.	1r	.	8cc	.
.	.	.	.	.	.	.	.	.	.	.	.	.	.	.	.	.	.	.	.	.	.	.	.	.	4ff	.
8r	.	8r	.	.	.	.	.	.	.	4c	4AA	4cc	4f	-to	.	.	.	.	.	.	.	.	.	.	.	.
8AA	.	8AA	.	.	.	.	.	.	.	.	.	.	.	.	.	.	.	.	.	.	.	.	.	.	8ee	.
4BB-	.	4BB-	.	2d	.	2b-	.	.	.	8B-	8BB-	8dd	8f	sły-	.	.	.	.	.	.	.	.	.	.	8ddL	.
.	.	.	.	.	.	.	.	.	.	8B-	8BB-	8dd	8f	-szę	.	.	.	.	.	.	.	.	.	.	16ccL	.
.	.	.	.	.	.	.	.	.	.	.	.	.	.	.	.	.	.	.	.	.	.	.	.	.	16ddJJ	.
8r	.	8r	.	.	.	.	.	.	.	16B-LL	8BB-	8ee	8b-	je-	.	.	.	.	.	.	.	.	.	.	8eeL	.
.	.	.	.	.	.	.	.	.	.	16cJJ	.	.	.	.	.	.	.	.	.	.	.	.	.	.	.	.
8BB-	.	8BB-	.	.	.	.	.	.	.	16dLL	8BB-	8ff	8a	-go	.	.	.	.	.	.	.	.	.	.	8ffJ	.
.	.	.	.	.	.	.	.	.	.	16eJJ	.	.	.	.	.	.	.	.	.	.	.	.	.	.	.	.
=37	=37	=37	=37	=37	=37	=37	=37	=37	=37	=37	=37	=37	=37	=37	=37	=37	=37	=37	=37	=37	=37	=37	=37	=37	=37	=37
4C	.	4C	.	2f	.	2.g	.	1r	.	2f	1C	1cc	1g	głos!	1r	.	1r	1r	1r	.	1r	.	1r	.	8.ccL	.
.	.	.	.	.	.	.	.	.	.	.	.	.	.	.	.	.	.	.	.	.	.	.	.	.	16b-Jk	.
8r	.	8r	.	.	.	.	.	.	.	.	.	.	.	.	.	.	.	.	.	.	.	.	.	.	16aLL	.
.	.	.	.	.	.	.	.	.	.	.	.	.	.	.	.	.	.	.	.	.	.	.	.	.	16g	.
8GG	.	8GG	.	.	.	.	.	.	.	.	.	.	.	.	.	.	.	.	.	.	.	.	.	.	16a	.
.	.	.	.	.	.	.	.	.	.	.	.	.	.	.	.	.	.	.	.	.	.	.	.	.	16b-JJ	.
4C	.	4C	.	4e	.	.	.	.	.	2e	.	.	.	.	.	.	.	.	.	.	.	.	.	.	4cc	.
8r	.	8r	.	16B-LL	.	16dLL	.	.	.	.	.	.	.	.	.	.	.	.	.	.	.	.	.	.	4r	.
.	.	.	.	16c	.	16e	.	.	.	.	.	.	.	.	.	.	.	.	.	.	.	.	.	.	.	.
8AA	.	8AA	.	16d	.	16f	.	.	.	.	.	.	.	.	.	.	.	.	.	.	.	.	.	.	.	.
.	.	.	.	16eJJ	.	16gJJ	.	.	.	.	.	.	.	.	.	.	.	.	.	.	.	.	.	.	.	.
=38	=38	=38	=38	=38	=38	=38	=38	=38	=38	=38	=38	=38	=38	=38	=38	=38	=38	=38	=38	=38	=38	=38	=38	=38	=38	=38
8D	.	8D	.	4f	.	4a	.	1r	.	4A	4D	4a	8fL	O-	1r	.	1r	1r	1r	.	4a	.	1r	.	1r	.
8r	.	8r	.	.	.	.	.	.	.	.	.	.	8eJ	.	.	.	.	.	.	.	.	.	.	.	.	.
4r	.	4r	.	8eL	.	8gL	.	.	.	8A	16DLL	8g	8d	-to	.	.	.	.	.	.	8gL	.	.	.	.	.
.	.	.	.	.	.	.	.	.	.	.	16EJJ	.	.	.	.	.	.	.	.	.	.	.	.	.	.	.
.	.	.	.	8dJ	.	8fJ	.	.	.	8A	16FLL	8f	8d	nad-	.	.	.	.	.	.	8fJ	.	.	.	.	.
.	.	.	.	.	.	.	.	.	.	.	16GJJ	.	.	.	.	.	.	.	.	.	.	.	.	.	.	.
4AA	.	4AA	.	16c#XLL	.	16eLL	.	.	.	8AL	4A	4e	4c#X	-cho-	.	.	.	.	.	.	4e	.	.	.	.	.
.	.	.	.	16A	.	16c#X	.	.	.	.	.	.	.	.	.	.	.	.	.	.	.	.	.	.	.	.
.	.	.	.	16G	.	16Bn	.	.	.	8BnJ	.	.	.	.	.	.	.	.	.	.	.	.	.	.	.	.
.	.	.	.	16AJJ	.	16c#JJ	.	.	.	.	.	.	.	.	.	.	.	.	.	.	.	.	.	.	.	.
4AA	.	4AA	.	16BnLL	.	16dLL	.	.	.	4A	4AA	4e	4c#	-dzi	.	.	.	.	.	.	4e	.	.	.	.	.
.	.	.	.	16c#	.	16e	.	.	.	.	.	.	.	.	.	.	.	.	.	.	.	.	.	.	.	.
.	.	.	.	16d	.	16f	.	.	.	.	.	.	.	.	.	.	.	.	.	.	.	.	.	.	.	.
.	.	.	.	16eJJ	.	16gJJ	.	.	.	.	.	.	.	.	.	.	.	.	.	.	.	.	.	.	.	.
=39	=39	=39	=39	=39	=39	=39	=39	=39	=39	=39	=39	=39	=39	=39	=39	=39	=39	=39	=39	=39	=39	=39	=39	=39	=39	=39
8D'	.	8D'	.	8f'~L	.	8a'~L	.	1r	.	8A	8D	8a	8f	mój	1r	.	1r	1r	2r	.	8a'~L	.	1r	.	1r	.
8r	.	8r	.	8f'~	.	8a'~	.	.	.	8A	8D	8a	8e	U-	.	.	.	.	.	.	8a'~	.	.	.	.	.
4r	.	4r	.	8e	.	8g	.	.	.	8A	16DLL	8g	8d	-mi-	.	.	.	.	.	.	8g	.	.	.	.	.
.	.	.	.	.	.	.	.	.	.	.	16EJJ	.	.	.	.	.	.	.	.	.	.	.	.	.	.	.
.	.	.	.	8dJ	.	8fJ	.	.	.	8A	16FLL	8f	8d	-ło-	.	.	.	.	.	.	8fJ	.	.	.	.	.
.	.	.	.	.	.	.	.	.	.	.	16GJJ	.	.	.	.	.	.	.	.	.	.	.	.	.	.	.
4AA	.	4AA	.	4c#X	.	4e	.	.	.	8AL	4A	4e	4c#X	-wa-	.	.	.	.	8r	.	4e	.	.	.	.	.
.	.	.	.	.	.	.	.	.	.	8BnJ	.	.	.	.	.	.	.	.	8C#XL	.	.	.	.	.	.	.
4AA	.	4AA	.	4c#	.	4e	.	.	.	4A	4AA	4e	4c#	-ny,	.	.	.	.	8BB-	.	4e	.	.	.	.	.
.	.	.	.	.	.	.	.	.	.	.	.	.	.	.	.	.	.	.	8AAJ	.	.	.	.	.	.	.
=40	=40	=40	=40	=40	=40	=40	=40	=40	=40	=40	=40	=40	=40	=40	=40	=40	=40	=40	=40	=40	=40	=40	=40	=40	=40	=40
4GG	.	4GG	.	4B-	.	4g	.	1r	.	4B-	4GG	4g	4d	o-	1r	.	1r	1r	8GGL	.	4g	.	1r	.	1r	.
.	.	.	.	.	.	.	.	.	.	.	.	.	.	.	.	.	.	.	16BB-L	.	.	.	.	.	.	.
.	.	.	.	.	.	.	.	.	.	.	.	.	.	.	.	.	.	.	16CJJ	.	.	.	.	.	.	.
8r	.	8r	.	4B-	.	4f	.	.	.	4B-	4BB-	4f	4d	-to	.	.	.	.	8DL	.	4f	.	.	.	.	.
8BB-	.	8BB-	.	.	.	.	.	.	.	.	.	.	.	.	.	.	.	.	8B-J	.	.	.	.	.	.	.
4C	.	4C	.	8G'L	.	8f'L	.	.	.	8G	8C	8f	8c	sły-	.	.	.	.	4c'	.	8f'L	.	.	.	.	.
.	.	.	.	8G'	.	8f'	.	.	.	8G	8C	8f	8c	-szę	.	.	.	.	.	.	8f'	.	.	.	.	.
8r	.	8r	.	8G'	.	8f'	.	.	.	8G	8C	8f	8c	je-	.	.	.	.	4C'	.	8f'	.	.	.	.	.
16GGLL	.	16GGLL	.	8G'J	.	8e'J	.	.	.	8G	8C	8e	8c	-go	.	.	.	.	.	.	8e'J	.	.	.	.	.
16CJJ	.	16CJJ	.	.	.	.	.	.	.	.	.	.	.	.	.	.	.	.	.	.	.	.	.	.	.	.
=41	=41	=41	=41	=41	=41	=41	=41	=41	=41	=41	=41	=41	=41	=41	=41	=41	=41	=41	=41	=41	=41	=41	=41	=41	=41	=41
4FF	.	4FF	.	(4A	<	(4f	<	2r	.	2A	2F	2f	2c	głos!	1r	.	2.r	1r	2F	.	2f	.	1r	.	1r	.
2r	.	2r	.	4B-	.	4g	.	.	.	.	.	.	.	.	.	.	.	.	.	.	.	.	.	.	.	.
.	.	.	.	8cL	.	8aL	.	8ffL	mf <	2r	2r	2r	2r	.	.	.	.	.	2r	.	2r	.	.	.	.	.
.	.	.	.	8eJ)	.	8b-J)	.	8ggJ	.	.	.	.	.	.	.	.	.	.	.	.	.	.	.	.	.	.
8r	.	8r	.	16f'LL	.	16cc'LL	.	16aa'LL	.	.	.	.	.	.	.	.	4r	.	.	.	.	.	.	.	.	.
.	.	.	.	16e'	.	16b-'	.	16gg'	.	.	.	.	.	.	.	.	.	.	.	.	.	.	.	.	.	.
!LO:TX:a:t=arco	!	!LO:TX:a:t=arco	!	!	!	!	!	!	!	!	!	!	!	!	!	!	!	!	!	!	!	!	!	!	!	!
8C	.	8C	.	16f'	.	16cc'	.	16aa'	.	.	.	.	.	.	.	.	.	.	.	.	.	.	.	.	.	.
.	.	.	.	16g'JJ	[[	16dd'JJ	[[	16bb-'JJ	[[	.	.	.	.	.	.	.	.	.	.	.	.	.	.	.	.	.
=42	=42	=42	=42	=42	=42	=42	=42	=42	=42	=42	=42	=42	=42	=42	=42	=42	=42	=42	=42	=42	=42	=42	=42	=42	=42	=42
4F	f	4F	f	4f	f	8aL	f	4ccc	f	4c	4F	4cc	8aL	O-	1r	.	2r	2r	1r	.	1r	.	1r	.	1r	.
.	.	.	.	.	.	8g	.	.	.	.	.	.	8gJ	.	.	.	.	.	.	.	.	.	.	.	.	.
16FLL	.	16FLL	.	8cL	.	8f	.	8bb-L	.	8c	16FLL	8b-	8f	-to	.	.	.	.	.	.	.	.	.	.	.	.
16G	.	16G	.	.	.	.	.	.	.	.	16GJJ	.	.	.	.	.	.	.	.	.	.	.	.	.	.	.
16A	.	16A	.	8cJ	.	8fJ	.	8aaJ	.	8c	16ALL	8a	8f	nad-	.	.	.	.	.	.	.	.	.	.	.	.
16B-JJ	.	16B-JJ	.	.	.	.	.	.	.	.	16B-JJ	.	.	.	.	.	.	.	.	.	.	.	.	.	.	.
4c	.	4c	.	16cLL	.	16eLL	.	16ggLL	.	8cL	4c	4g	4e	-cho-	.	.	2r	2r	.	.	.	.	.	.	.	.
.	.	.	.	16e	.	16g	.	16cc	.	.	.	.	.	.	.	.	.	.	.	.	.	.	.	.	.	.
.	.	.	.	16f	.	16a	.	16dd	.	8dJ	.	.	.	.	.	.	.	.	.	.	.	.	.	.	.	.
.	.	.	.	16gJJ	.	16b-JJ	.	16eeJJ	.	.	.	.	.	.	.	.	.	.	.	.	.	.	.	.	.	.
4C	.	4C	.	16aLL	.	16ccLL	.	16ffLL	.	4c	4C	4g	4e	-dzi	.	.	.	.	.	.	.	.	.	.	.	.
.	.	.	.	16b-	.	16dd	.	16gg	.	.	.	.	.	.	.	.	.	.	.	.	.	.	.	.	.	.
.	.	.	.	16a	.	16cc	.	16aa	.	.	.	.	.	.	.	.	.	.	.	.	.	.	.	.	.	.
.	.	.	.	16gJJ	.	16b-JJ	.	16bb-JJ	.	.	.	.	.	.	.	.	.	.	.	.	.	.	.	.	.	.
=43	=43	=43	=43	=43	=43	=43	=43	=43	=43	=43	=43	=43	=43	=43	=43	=43	=43	=43	=43	=43	=43	=43	=43	=43	=43	=43
8F'~L	.	8F'~L	.	8f'~L	.	8a'~L	.	8ccc'~L	.	8c	8F	8cc	8a	mój	1r	.	1r	1r	1r	.	1r	.	2.r	.	1r	.
8F'~J	.	8F'~J	.	8f'~	.	8g'~	.	8ccc'~	.	8c	8F	8cc	8g	U-	.	.	.	.	.	.	.	.	.	.	.	.
16FLL	.	16FLL	.	8c	.	8f	.	8bb-	.	8c	16FLL	8b-	8f	-mi-	.	.	.	.	.	.	.	.	.	.	.	.
16G	.	16G	.	.	.	.	.	.	.	.	16GJJ	.	.	.	.	.	.	.	.	.	.	.	.	.	.	.
16A	.	16A	.	8cJ	.	8fJ	.	8aaJ	.	8c	16ALL	8a	8f	-ło-	.	.	.	.	.	.	.	.	.	.	.	.
16B-JJ	.	16B-JJ	.	.	.	.	.	.	.	.	16B-JJ	.	.	.	.	.	.	.	.	.	.	.	.	.	.	.
4c	.	4c	.	16cLL	.	16eLL	.	16ggLL	.	8cL	4c	4g	4e	-wa-	.	.	.	.	.	.	.	.	.	.	.	.
.	.	.	.	16e	.	16g	.	16cc	.	.	.	.	.	.	.	.	.	.	.	.	.	.	.	.	.	.
.	.	.	.	16f	.	16a	.	16dd	.	8dJ	.	.	.	.	.	.	.	.	.	.	.	.	.	.	.	.
.	.	.	.	16gJJ	.	16b-JJ	.	16eeJJ	.	.	.	.	.	.	.	.	.	.	.	.	.	.	.	.	.	.
4C	.	4C	.	16aLL	.	16ccLL	.	16ffLL	.	4c	4C	4g	4e	-ny,	.	.	.	.	.	.	.	.	8r	.	.	.
.	.	.	.	16b-	.	16dd	.	16gg	.	.	.	.	.	.	.	.	.	.	.	.	.	.	.	.	.	.
.	.	.	.	16a	.	16cc	.	16aa	.	.	.	.	.	.	.	.	.	.	.	.	.	.	16aLL	f	.	.
.	.	.	.	16gJJ	.	16b-JJ	.	16bb-JJ	.	.	.	.	.	.	.	.	.	.	.	.	.	.	16b-JJ	.	.	.
=44	=44	=44	=44	=44	=44	=44	=44	=44	=44	=44	=44	=44	=44	=44	=44	=44	=44	=44	=44	=44	=44	=44	=44	=44	=44	=44
2AA	.	2AA	.	4f	.	4cc	.	4ccc	.	4c	4AA	4cc	4f	o-	1r	.	1r	1r	1r	.	1r	.	4cc	.	1r	.
.	.	.	.	4f	.	4cc	.	4ccc	.	4c	4AA	4cc	4f	-to	.	.	.	.	.	.	.	.	4cc	.	.	.
2BB-	.	2BB-	.	8dL	.	8ddL	.	8bb-L	.	8B-	8BB-	8dd	8f	sły-	.	.	.	.	.	.	.	.	8ddL	.	.	.
.	.	.	.	8d	.	8cc	.	8aa	.	8B-	8BB-	8dd	8f	-szę	.	.	.	.	.	.	.	.	8dd	.	.	.
.	.	.	.	8e	.	8b-	.	8gg	.	16B-LL	8BB-	8ee	8b-	je-	.	.	.	.	.	.	.	.	8ee	.	.	.
.	.	.	.	.	.	.	.	.	.	16cJJ	.	.	.	.	.	.	.	.	.	.	.	.	.	.	.	.
.	.	.	.	8fJ	.	8aJ	.	8ffJ	.	16dLL	8BB-	8ff	8a	-go	.	.	.	.	.	.	.	.	8ffJ	.	.	.
.	.	.	.	.	.	.	.	.	.	16eJJ	.	.	.	.	.	.	.	.	.	.	.	.	.	.	.	.
=45	=45	=45	=45	=45	=45	=45	=45	=45	=45	=45	=45	=45	=45	=45	=45	=45	=45	=45	=45	=45	=45	=45	=45	=45	=45	=45
2.C	.	2.C	.	2f	.	2.cc	.	2.gg	.	2f	1C	1cc	1g	głos!	1r	.	1r	1r	1r	.	1r	.	2.cc	.	1r	.
.	.	.	.	4e	.	.	.	.	.	2e	.	.	.	.	.	.	.	.	.	.	.	.	.	.	.	.
8CL	.	8CL	.	16B-LL	.	8fL	.	16ddLL	.	.	.	.	.	.	.	.	.	.	.	.	.	.	4r	.	.	.
.	.	.	.	16c	.	.	.	16ee	.	.	.	.	.	.	.	.	.	.	.	.	.	.	.	.	.	.
8AAJ	.	8AAJ	.	16d	.	8ccJ	.	16ff	.	.	.	.	.	.	.	.	.	.	.	.	.	.	.	.	.	.
.	.	.	.	16eJJ	.	.	.	16ggJJ	.	.	.	.	.	.	.	.	.	.	.	.	.	.	.	.	.	.
=46	=46	=46	=46	=46	=46	=46	=46	=46	=46	=46	=46	=46	=46	=46	=46	=46	=46	=46	=46	=46	=46	=46	=46	=46	=46	=46
4D	.	4D	.	4f	.	4dd	.	4aa	.	4A	4D	4a	8fL	O-	1r	.	1r	1r	1r	.	1r	.	1r	.	1r	.
.	.	.	.	.	.	.	.	.	.	.	.	.	8eJ	.	.	.	.	.	.	.	.	.	.	.	.	.
16DLL	.	16DLL	.	8eL	.	8ccL	.	8ggL	.	8A	16DLL	8g	8d	-to	.	.	.	.	.	.	.	.	.	.	.	.
16E	.	16E	.	.	.	.	.	.	.	.	16EJJ	.	.	.	.	.	.	.	.	.	.	.	.	.	.	.
16F	.	16F	.	8dJ	.	8b-J	.	8ffJ	.	8A	16FLL	8f	8d	nad-	.	.	.	.	.	.	.	.	.	.	.	.
16GJJ	.	16GJJ	.	.	.	.	.	.	.	.	16GJJ	.	.	.	.	.	.	.	.	.	.	.	.	.	.	.
4A	.	4A	.	8c#XL	.	16aLL	.	16eeLL	.	8AL	4A	4e	4c#X	-cho-	.	.	.	.	.	.	.	.	.	.	.	.
.	.	.	.	.	.	16e	.	16a	.	.	.	.	.	.	.	.	.	.	.	.	.	.	.	.	.	.
.	.	.	.	16BnL	.	16d	.	16bn	.	8BnJ	.	.	.	.	.	.	.	.	.	.	.	.	.	.	.	.
.	.	.	.	16AJJ	.	16eJJ	.	16cc#XJJ	.	.	.	.	.	.	.	.	.	.	.	.	.	.	.	.	.	.
4AA	.	4AA	.	16BLL	.	16fLL	.	16ddLL	.	4A	4AA	4e	4c#	-dzi	.	.	.	.	.	.	.	.	.	.	.	.
.	.	.	.	16c#	.	16a	.	16ee	.	.	.	.	.	.	.	.	.	.	.	.	.	.	.	.	.	.
.	.	.	.	16d	.	16b-	.	16ff	.	.	.	.	.	.	.	.	.	.	.	.	.	.	.	.	.	.
.	.	.	.	16eJJ	.	16ccJJ	.	16ggJJ	.	.	.	.	.	.	.	.	.	.	.	.	.	.	.	.	.	.
=47	=47	=47	=47	=47	=47	=47	=47	=47	=47	=47	=47	=47	=47	=47	=47	=47	=47	=47	=47	=47	=47	=47	=47	=47	=47	=47
8D'~L	.	8D'~L	.	8f'~L	.	8dd'~L	.	8aa'~L	.	8A	8D	8a	8f	mój	1r	.	1r	1r	1r	.	1r	.	1r	.	2.r	.
8D'~J	.	8D'~J	.	8f'~	.	8dd'~	.	8aa'~	.	8A	8D	8a	8e	U-	.	.	.	.	.	.	.	.	.	.	.	.
16DLL	.	16DLL	.	8e	.	8cc	.	8gg	.	8A	16DLL	8g	8d	-mi-	.	.	.	.	.	.	.	.	.	.	.	.
16E	.	16E	.	.	.	.	.	.	.	.	16EJJ	.	.	.	.	.	.	.	.	.	.	.	.	.	.	.
16F	.	16F	.	8dJ	.	8b-J	.	8ffJ	.	8A	16FLL	8f	8d	-ło-	.	.	.	.	.	.	.	.	.	.	.	.
16GJJ	.	16GJJ	.	.	.	.	.	.	.	.	16GJJ	.	.	.	.	.	.	.	.	.	.	.	.	.	.	.
4A	.	4A	.	4c#X	.	8aL	.	4ee	.	8AL	4A	4e	4c#X	-wa-	.	.	.	.	.	.	.	.	.	.	.	.
.	.	.	.	.	.	8bnJ	.	.	.	8BnJ	.	.	.	.	.	.	.	.	.	.	.	.	.	.	.	.
4AA	.	4AA	.	4c#	.	4a	.	4ee	.	4A	4AA	4e	4c#	-ny,	.	.	.	.	.	.	.	.	.	.	8r	.
.	.	.	.	.	.	.	.	.	.	.	.	.	.	.	.	.	.	.	.	.	.	.	.	.	16eeLL	f
.	.	.	.	.	.	.	.	.	.	.	.	.	.	.	.	.	.	.	.	.	.	.	.	.	16ffJJ	.
=48	=48	=48	=48	=48	=48	=48	=48	=48	=48	=48	=48	=48	=48	=48	=48	=48	=48	=48	=48	=48	=48	=48	=48	=48	=48	=48
4GG	.	4GG	.	4d	.	4b-	.	4gg	.	4B-	4GG	4g	4d	o-	1r	.	1r	1r	1r	.	1r	.	1r	.	8gg	.
.	.	.	.	.	.	.	.	.	.	.	.	.	.	.	.	.	.	.	.	.	.	.	.	.	4bb-	.
4BB-	.	4BB-	.	4d	.	4b-	.	4ff	.	4B-	4BB-	4f	4d	-to	.	.	.	.	.	.	.	.	.	.	.	.
.	.	.	.	.	.	.	.	.	.	.	.	.	.	.	.	.	.	.	.	.	.	.	.	.	8aa	.
8C'L	.	8C'L	.	16c'LL	.	16a'LL	.	16ff'LL	.	8G	8C	8f	8c	sły-	.	.	.	.	.	.	.	.	.	.	4.ff	.
.	.	.	.	16B-'	.	16g'	.	16ee'	.	.	.	.	.	.	.	.	.	.	.	.	.	.	.	.	.	.
8C'	.	8C'	.	16A'	.	16f'	.	16dd'	.	8G	8C	8f	8c	-szę	.	.	.	.	.	.	.	.	.	.	.	.
.	.	.	.	16G'JJ	.	16e'JJ	.	16cc'JJ	.	.	.	.	.	.	.	.	.	.	.	.	.	.	.	.	.	.
8C'	.	8C'	.	16c'LL	.	16g'LL	.	16b-'LL	.	8G	8C	8f	8c	je-	.	.	.	.	.	.	.	.	.	.	.	.
.	.	.	.	16c'	.	16f'	.	16a'	.	.	.	.	.	.	.	.	.	.	.	.	.	.	.	.	.	.
8C'J	.	8C'J	.	16B-'	.	16e'	.	16g'	.	8G	8C	8e	8c	-go	.	.	.	.	.	.	.	.	.	.	8gg	.
.	.	.	.	16c'JJ	.	16e'JJ	.	16a'JJ	.	.	.	.	.	.	.	.	.	.	.	.	.	.	.	.	.	.
=49||	=49||	=49||	=49||	=49||	=49||	=49||	=49||	=49||	=49||	=49||	=49||	=49||	=49||	=49||	=49||	=49||	=49||	=49||	=49||	=49||	=49||	=49||	=49||	=49||	=49||	=49||
1r	.	1F	.	16c'LL	.	16f'LL	.	1r	.	2A	2F	2f	2c	głos!	1r	.	1r	1r	1r	.	1r	.	2.r	.	2ff	.
.	.	.	.	16c'	.	16f'	.	.	.	.	.	.	.	.	.	.	.	.	.	.	.	.	.	.	.	.
.	.	.	.	16A'	.	16cc'	.	.	.	.	.	.	.	.	.	.	.	.	.	.	.	.	.	.	.	.
.	.	.	.	16c'JJ	.	16f'JJ	.	.	.	.	.	.	.	.	.	.	.	.	.	.	.	.	.	.	.	.
.	.	.	.	16r	.	16r	.	.	.	.	.	.	.	.	.	.	.	.	.	.	.	.	.	.	.	.
.	.	.	.	16c'LL	.	16f'LL	.	.	.	.	.	.	.	.	.	.	.	.	.	.	.	.	.	.	.	.
.	.	.	.	16A'	.	16cc'	.	.	.	.	.	.	.	.	.	.	.	.	.	.	.	.	.	.	.	.
.	.	.	.	16c'JJ	.	16f'JJ	.	.	.	.	.	.	.	.	.	.	.	.	.	.	.	.	.	.	.	.
.	.	.	.	16r	.	16r	.	.	.	2r	2r	2r	2r	.	.	.	.	.	.	.	.	.	.	.	2r	.
.	.	.	.	16c'LL	.	16f'LL	.	.	.	.	.	.	.	.	.	.	.	.	.	.	.	.	.	.	.	.
.	.	.	.	16A'	.	16cc'	.	.	.	.	.	.	.	.	.	.	.	.	.	.	.	.	.	.	.	.
.	.	.	.	16c'JJ	.	16f'JJ	.	.	.	.	.	.	.	.	.	.	.	.	.	.	.	.	.	.	.	.
.	.	.	.	16r	.	16r	.	.	.	.	.	.	.	.	.	.	.	.	.	.	.	.	16fLL	.	.	.
.	.	.	.	16c'LL	.	16f'LL	.	.	.	.	.	.	.	.	.	.	.	.	.	.	.	.	16g	.	.	.
.	.	.	.	16A'	.	16cc'	.	.	.	.	.	.	.	.	.	.	.	.	.	.	.	.	16a	.	.	.
.	.	.	.	16c'JJ	.	16f'JJ	.	.	.	.	.	.	.	.	.	.	.	.	.	.	.	.	16b-JJ	.	.	.
*	*	*	*	*	*	*	*	*	*	*v	*v	*	*	*	*	*	*	*	*	*	*	*	*	*	*	*
*	*	*	*	*	*	*	*	*	*	*	*v	*v	*	*	*	*	*	*	*	*	*	*	*	*	*
=50	=50	=50	=50	=50	=50	=50	=50	=50	=50	=50	=50	=50	=50	=50	=50	=50	=50	=50	=50	=50	=50	=50	=50	=50
1r	.	1E-X	.	16B-'LL	.	16f'LL	.	1r	.	1r	1r	.	1r	.	1r	1r	4.r	.	1r	.	4.cc	.	1r	.
.	.	.	.	16B-'	.	16f'	.	.	.	.	.	.	.	.	.	.	.	.	.	.	.	.	.	.
.	.	.	.	16G'	.	16cc'	.	.	.	.	.	.	.	.	.	.	.	.	.	.	.	.	.	.
.	.	.	.	16B-'JJ	.	16f'JJ	.	.	.	.	.	.	.	.	.	.	.	.	.	.	.	.	.	.
.	.	.	.	16r	.	16r	.	.	.	.	.	.	.	.	.	.	.	.	.	.	.	.	.	.
.	.	.	.	16B-'LL	.	16f'LL	.	.	.	.	.	.	.	.	.	.	.	.	.	.	.	.	.	.
.	.	.	.	16G'	.	16cc'	.	.	.	.	.	.	.	.	.	.	8F	f	.	.	16b-LL	.	.	.
.	.	.	.	16B-'JJ	.	16f'JJ	.	.	.	.	.	.	.	.	.	.	.	.	.	.	16aJJ	.	.	.
.	.	.	.	16r	.	16r	.	.	.	.	.	.	.	.	.	.	4.c	.	.	.	2f	.	.	.
.	.	.	.	16B-'LL	.	16f'LL	.	.	.	.	.	.	.	.	.	.	.	.	.	.	.	.	.	.
.	.	.	.	16G'	.	16cc'	.	.	.	.	.	.	.	.	.	.	.	.	.	.	.	.	.	.
.	.	.	.	16B-'JJ	.	16f'JJ	.	.	.	.	.	.	.	.	.	.	.	.	.	.	.	.	.	.
.	.	.	.	16r	.	16r	.	.	.	.	.	.	.	.	.	.	.	.	.	.	.	.	.	.
.	.	.	.	16B-'LL	.	16f'LL	.	.	.	.	.	.	.	.	.	.	.	.	.	.	.	.	.	.
.	.	.	.	16G'	.	16cc'	.	.	.	.	.	.	.	.	.	.	16B-LL	.	.	.	.	.	.	.
.	.	.	.	16B-'JJ	.	16f'JJ	.	.	.	.	.	.	.	.	.	.	16AJJ	.	.	.	.	.	.	.
=51	=51	=51	=51	=51	=51	=51	=51	=51	=51	=51	=51	=51	=51	=51	=51	=51	=51	=51	=51	=51	=51	=51	=51	=51
1r	.	1D	.	16B-'LL	.	16f'LL	.	1r	.	1r	1r	.	1r	.	1r	1r	2F	.	1r	.	4r	.	1r	.
.	.	.	.	16B-'	.	16f'	.	.	.	.	.	.	.	.	.	.	.	.	.	.	.	.	.	.
.	.	.	.	16F'	.	16cc'	.	.	.	.	.	.	.	.	.	.	.	.	.	.	.	.	.	.
.	.	.	.	16B-'JJ	.	16f'JJ	.	.	.	.	.	.	.	.	.	.	.	.	.	.	.	.	.	.
.	.	.	.	16r	.	16r	.	.	.	.	.	.	.	.	.	.	.	.	.	.	16b-LL	.	.	.
.	.	.	.	16B-'LL	.	16f'LL	.	.	.	.	.	.	.	.	.	.	.	.	.	.	16a	.	.	.
.	.	.	.	16F'	.	16cc'	.	.	.	.	.	.	.	.	.	.	.	.	.	.	16g	.	.	.
.	.	.	.	16B-'JJ	.	16f'JJ	.	.	.	.	.	.	.	.	.	.	.	.	.	.	[16fJJ	.	.	.
.	.	.	.	16r	.	16r	.	.	.	.	.	.	.	.	.	.	2r	.	.	.	4.f]	.	.	.
.	.	.	.	16B-'LL	.	16f'LL	.	.	.	.	.	.	.	.	.	.	.	.	.	.	.	.	.	.
.	.	.	.	16F'	.	16cc'	.	.	.	.	.	.	.	.	.	.	.	.	.	.	.	.	.	.
.	.	.	.	16B-'JJ	.	16f'JJ	.	.	.	.	.	.	.	.	.	.	.	.	.	.	.	.	.	.
.	.	.	.	16r	.	16r	.	.	.	.	.	.	.	.	.	.	.	.	.	.	.	.	.	.
.	.	.	.	16B-'LL	.	16f'LL	.	.	.	.	.	.	.	.	.	.	.	.	.	.	.	.	.	.
.	.	.	.	16F'	.	16cc'	.	.	.	.	.	.	.	.	.	.	.	.	.	.	16aLL	.	.	.
.	.	.	.	16B-'JJ	.	16f'JJ	.	.	.	.	.	.	.	.	.	.	.	.	.	.	16b-JJ	.	.	.
=52	=52	=52	=52	=52	=52	=52	=52	=52	=52	=52	=52	=52	=52	=52	=52	=52	=52	=52	=52	=52	=52	=52	=52	=52
2.r	.	1C	.	16c'LL	.	16f'LL	.	1r	.	1r	1r	.	1r	.	1r	1r	4r	.	1r	.	4.cc	.	1r	.
.	.	.	.	16c'	.	16f'	.	.	.	.	.	.	.	.	.	.	.	.	.	.	.	.	.	.
.	.	.	.	16A'	.	16cc'	.	.	.	.	.	.	.	.	.	.	.	.	.	.	.	.	.	.
.	.	.	.	16c'JJ	.	16f'JJ	.	.	.	.	.	.	.	.	.	.	.	.	.	.	.	.	.	.
.	.	.	.	16r	.	16r	.	.	.	.	.	.	.	.	.	.	16B-LL	.	.	.	.	.	.	.
.	.	.	.	16A'LL	.	16f'LL	.	.	.	.	.	.	.	.	.	.	16A	.	.	.	.	.	.	.
.	.	.	.	16f'	.	16cc'	.	.	.	.	.	.	.	.	.	.	16G	.	.	.	16ddLL	.	.	.
.	.	.	.	16e'JJ	.	16g'JJ	.	.	.	.	.	.	.	.	.	.	[16FJJ	.	.	.	[16ccJJ	.	.	.
.	.	.	.	16r	.	16r	.	.	.	.	.	.	.	.	.	.	4F]	.	.	.	2cc]	.	.	.
.	.	.	.	16e'LL	.	16g'LL	.	.	.	.	.	.	.	.	.	.	.	.	.	.	.	.	.	.
.	.	.	.	16f'	.	16a'	.	.	.	.	.	.	.	.	.	.	.	.	.	.	.	.	.	.
.	.	.	.	16g'JJ	.	16b-'JJ	.	.	.	.	.	.	.	.	.	.	.	.	.	.	.	.	.	.
8r	.	.	.	16r	.	16r	.	.	.	.	.	.	.	.	.	.	4G	.	.	.	.	.	.	.
.	.	.	.	16e'LL	.	16g'LL	.	.	.	.	.	.	.	.	.	.	.	.	.	.	.	.	.	.
8C	.	.	.	16f'	.	16a'	.	.	.	.	.	.	.	.	.	.	.	.	.	.	.	.	.	.
.	.	.	.	16e'JJ	.	16g'JJ	.	.	.	.	.	.	.	.	.	.	.	.	.	.	.	.	.	.
=53	=53	=53	=53	=53	=53	=53	=53	=53	=53	=53	=53	=53	=53	=53	=53	=53	=53	=53	=53	=53	=53	=53	=53	=53
1F	.	1F	.	16c'LL	.	16a'LL	.	16ff'LL	.	1r	1r	.	1r	.	1r	1r	2F	.	16fLL	f	2.r	.	2.r	.
.	.	.	.	16c'	.	16a'	.	16ff'	.	.	.	.	.	.	.	.	.	.	16g	.	.	.	.	.
.	.	.	.	16A'	.	16f'	.	16ccc'	.	.	.	.	.	.	.	.	.	.	16a	.	.	.	.	.
.	.	.	.	16c'JJ	.	16a'JJ	.	16ff'JJ	.	.	.	.	.	.	.	.	.	.	16b-JJ	.	.	.	.	.
.	.	.	.	16r	.	16r	.	16r	.	.	.	.	.	.	.	.	.	.	8ccL	.	.	.	.	.
.	.	.	.	16c'LL	.	16a'LL	.	16ff'LL	.	.	.	.	.	.	.	.	.	.	.	.	.	.	.	.
.	.	.	.	16A'	.	16f'	.	16ccc'	.	.	.	.	.	.	.	.	.	.	16ddL	.	.	.	.	.
.	.	.	.	16c'JJ	.	16a'JJ	.	16ff'JJ	.	.	.	.	.	.	.	.	.	.	[16ccJJ	.	.	.	.	.
.	.	.	.	16r	.	16r	.	16r	.	.	.	.	.	.	.	.	2r	.	4.cc]	.	.	.	.	.
.	.	.	.	16c'LL	.	16a'LL	.	16ff'LL	.	.	.	.	.	.	.	.	.	.	.	.	.	.	.	.
.	.	.	.	16A'	.	16f'	.	16ccc'	.	.	.	.	.	.	.	.	.	.	.	.	.	.	.	.
.	.	.	.	16c'JJ	.	16a'JJ	.	16ff'JJ	.	.	.	.	.	.	.	.	.	.	.	.	.	.	.	.
.	.	.	.	16r	.	16r	.	16r	.	.	.	.	.	.	.	.	.	.	.	.	16aLL	.	16ffLL	.
.	.	.	.	16c'LL	.	16a'LL	.	16ff'LL	.	.	.	.	.	.	.	.	.	.	.	.	16b-	.	16gg	.
.	.	.	.	16A'	.	16f'	.	16ccc'	.	.	.	.	.	.	.	.	.	.	8r	.	16cc	.	16aa	.
.	.	.	.	16c'JJ	.	16a'JJ	.	16ff'JJ	.	.	.	.	.	.	.	.	.	.	.	.	16ddJJ	.	16bb-JJ	.
=54	=54	=54	=54	=54	=54	=54	=54	=54	=54	=54	=54	=54	=54	=54	=54	=54	=54	=54	=54	=54	=54	=54	=54	=54
1E-X	.	1E-X	.	16B-'LL	.	16g'LL	.	16ff'LL	.	1r	1r	.	1r	.	1r	1r	2r	.	2r	.	4.ee-X	.	4.ccc	.
.	.	.	.	16B-'	.	16g'	.	16ff'	.	.	.	.	.	.	.	.	.	.	.	.	.	.	.	.
.	.	.	.	16G'	.	16e-X'	.	16ccc'	.	.	.	.	.	.	.	.	.	.	.	.	.	.	.	.
.	.	.	.	16B-'JJ	.	16g'JJ	.	16ff'JJ	.	.	.	.	.	.	.	.	.	.	.	.	.	.	.	.
.	.	.	.	16r	.	16r	.	16r	.	.	.	.	.	.	.	.	.	.	.	.	.	.	.	.
.	.	.	.	16B-'LL	.	16g'LL	.	16ff'LL	.	.	.	.	.	.	.	.	.	.	.	.	.	.	.	.
.	.	.	.	16G'	.	16e-'	.	16ccc'	.	.	.	.	.	.	.	.	.	.	.	.	16ddLL	.	16bb-LL	.
.	.	.	.	16B-'JJ	.	16g'JJ	.	16ff'JJ	.	.	.	.	.	.	.	.	.	.	.	.	16ccJJ	.	16aaJJ	.
.	.	.	.	16r	.	16r	.	16r	.	.	.	.	.	.	.	.	8r	.	8r	.	2b-	.	2ff	.
.	.	.	.	16B-'LL	.	16g'LL	.	16ff'LL	.	.	.	.	.	.	.	.	.	.	.	.	.	.	.	.
.	.	.	.	16G'	.	16e-'	.	16ccc'	.	.	.	.	.	.	.	.	8GL	.	8b-L	.	.	.	.	.
.	.	.	.	16B-'JJ	.	16g'JJ	.	16ff'JJ	.	.	.	.	.	.	.	.	.	.	.	.	.	.	.	.
.	.	.	.	16r	.	16r	.	16r	.	.	.	.	.	.	.	.	8F	.	8a	.	.	.	.	.
.	.	.	.	16B-'LL	.	16g'LL	.	16ff'LL	.	.	.	.	.	.	.	.	.	.	.	.	.	.	.	.
.	.	.	.	16G'	.	16e-'	.	16ccc'	.	.	.	.	.	.	.	.	8E-XJ	.	8gJ	.	.	.	.	.
.	.	.	.	16B-'JJ	.	16g'JJ	.	16ff'JJ	.	.	.	.	.	.	.	.	.	.	.	.	.	.	.	.
=55	=55	=55	=55	=55	=55	=55	=55	=55	=55	=55	=55	=55	=55	=55	=55	=55	=55	=55	=55	=55	=55	=55	=55	=55
1D	.	1D	.	16c'LL	.	16b-'LL	.	16ff'LL	.	1r	1r	.	1r	.	1r	1r	2D	.	2f	.	2r	.	8r	.
.	.	.	.	16c'	.	16b-'	.	16ff'	.	.	.	.	.	.	.	.	.	.	.	.	.	.	.	.
.	.	.	.	16B-'	.	16f'	.	16ccc'	.	.	.	.	.	.	.	.	.	.	.	.	.	.	8bb-L	.
.	.	.	.	16c'JJ	.	16b-'JJ	.	16ff'JJ	.	.	.	.	.	.	.	.	.	.	.	.	.	.	.	.
.	.	.	.	16r	.	16r	.	16r	.	.	.	.	.	.	.	.	.	.	.	.	.	.	8aa	.
.	.	.	.	16c'LL	.	16b-'LL	.	16ff'LL	.	.	.	.	.	.	.	.	.	.	.	.	.	.	.	.
.	.	.	.	16B-'	.	16f'	.	16ccc'	.	.	.	.	.	.	.	.	.	.	.	.	.	.	8ggJ	.
.	.	.	.	16c'JJ	.	16b-'JJ	.	16ff'JJ	.	.	.	.	.	.	.	.	.	.	.	.	.	.	.	.
.	.	.	.	16r	.	16r	.	16r	.	.	.	.	.	.	.	.	2r	.	2r	.	8r	.	4.ff	.
.	.	.	.	16c'LL	.	16b-'LL	.	16ff'LL	.	.	.	.	.	.	.	.	.	.	.	.	.	.	.	.
.	.	.	.	16B-'	.	16f'	.	16ccc'	.	.	.	.	.	.	.	.	.	.	.	.	8b-L	.	.	.
.	.	.	.	16c'JJ	.	16b-'JJ	.	16ff'JJ	.	.	.	.	.	.	.	.	.	.	.	.	.	.	.	.
.	.	.	.	16r	.	16r	.	16r	.	.	.	.	.	.	.	.	.	.	.	.	8a	.	.	.
.	.	.	.	16c'LL	.	16b-'LL	.	16ff'LL	.	.	.	.	.	.	.	.	.	.	.	.	.	.	.	.
.	.	.	.	16B-'	.	16f'	.	16ccc'	.	.	.	.	.	.	.	.	.	.	.	.	8fJ	.	16aaLL	.
.	.	.	.	16c'JJ	.	16b-'JJ	.	16ff'JJ	.	.	.	.	.	.	.	.	.	.	.	.	.	.	16bb-JJ	.
=56	=56	=56	=56	=56	=56	=56	=56	=56	=56	=56	=56	=56	=56	=56	=56	=56	=56	=56	=56	=56	=56	=56	=56	=56
1C	.	1C	.	16A'LL	.	16cc'LL	.	16ff'LL	.	1r	1r	.	1r	.	1r	1r	1r	.	8r	.	2g	.	4.ccc	.
.	.	.	.	16A'	.	16cc'	.	16ff'	.	.	.	.	.	.	.	.	.	.	.	.	.	.	.	.
.	.	.	.	16F'	.	16a'	.	16ccc'	.	.	.	.	.	.	.	.	.	.	8b-L	.	.	.	.	.
.	.	.	.	16A'JJ	.	16cc'JJ	.	16ff'JJ	.	.	.	.	.	.	.	.	.	.	.	.	.	.	.	.
.	.	.	.	16r	.	16r	.	16r	.	.	.	.	.	.	.	.	.	.	8a	.	.	.	.	.
.	.	.	.	16A'LL	.	16cc'LL	.	16ff'LL	.	.	.	.	.	.	.	.	.	.	.	.	.	.	.	.
.	.	.	.	16c'	.	16a'	.	16ccc'	.	.	.	.	.	.	.	.	.	.	8gJ	.	.	.	16dddLL	.
.	.	.	.	16e'JJ	.	16cc'JJ	.	16gg'JJ	.	.	.	.	.	.	.	.	.	.	.	.	.	.	[16cccJJ	.
.	.	.	.	16r	.	16r	.	16r	.	.	.	.	.	.	.	.	.	.	4f	.	4a	.	2ccc]	.
.	.	.	.	16e'LL	.	16cc'LL	.	16gg'LL	.	.	.	.	.	.	.	.	.	.	.	.	.	.	.	.
.	.	.	.	16c'	.	16g'	.	16cc'	.	.	.	.	.	.	.	.	.	.	.	.	.	.	.	.
.	.	.	.	16G'JJ	.	16e'JJ	.	16g'JJ	.	.	.	.	.	.	.	.	.	.	.	.	.	.	.	.
.	.	.	.	16r	.	16r	.	16r	.	.	.	.	.	.	.	.	.	.	4g	.	4b-	.	.	.
.	.	.	.	16B-'LL	.	16e'LL	.	16g'LL	.	.	.	.	.	.	.	.	.	.	.	.	.	.	.	.
.	.	.	.	16c'	.	16f'	.	16a'	.	.	.	.	.	.	.	.	.	.	.	.	.	.	.	.
.	.	.	.	16B-'JJ	.	16e'JJ	.	16g'JJ	.	.	.	.	.	.	.	.	.	.	.	.	.	.	.	.
=57	=57	=57	=57	=57	=57	=57	=57	=57	=57	=57	=57	=57	=57	=57	=57	=57	=57	=57	=57	=57	=57	=57	=57	=57
1F	.	1F	.	1A	.	1c	.	1f	.	1r	1r	.	1r	.	1r	1r	1r	.	1f	.	1a	.	1r	.
==58	==58	==58	==58	==58	==58	==58	==58	==58	==58	==58	==58	==58	==58	==58	==58	==58	==58	==58	==58	==58	==58	==58	==58	==58
*-	*-	*-	*-	*-	*-	*-	*-	*-	*-	*-	*-	*-	*-	*-	*-	*-	*-	*-	*-	*-	*-	*-	*-	*-
!!!system-decoration: [(s1,s2,s3,s4)]{(s5,s6)}(s7)[(s8,s9)][(s10,s11s12,s13,s14)]
!!!YEM: Copyright by Tomasz Kozubek. All rights reserved